;FLAVOR:UltiGCode
;TIME:6343
;MATERIAL:8077
;MATERIAL2:0
;NOZZLE_DIAMETER:0.400000
;NOZZLE_DIAMETER2:0.400000

;Layer count: 68
;LAYER:0
M107
G0 F9000 X86.639 Y84.526 Z0.300
;TYPE:SKIRT
G1 F1800 X136.216 Y84.525 E5.94924
G1 X135.030 Y87.972 E6.38668
G1 X138.474 Y86.796 E6.82339
G1 X138.474 Y136.370 E12.77227
G1 X135.042 Y135.072 E13.21258
G1 X136.204 Y138.474 E13.64398
G1 X86.628 Y138.474 E19.59310
G1 X87.909 Y135.090 E20.02730
G1 X84.526 Y136.363 E20.46105
G1 X84.525 Y86.789 E26.40993
G1 X87.929 Y87.956 E26.84175
G1 X86.639 Y84.526 E27.28149
G10
G0 F9000 X92.037 Y88.668
;TYPE:WALL-INNER
G11
G1 F1800 X92.014 Y88.326 E27.32263
G1 X131.002 Y88.325 E32.00119
G1 X130.961 Y88.691 E32.04538
G1 X131.085 Y89.552 E32.14977
G1 X131.423 Y90.354 E32.25420
G1 X131.956 Y91.044 E32.35883
G1 X132.470 Y91.440 E32.43669
G1 X132.644 Y91.575 E32.46312
G1 X133.245 Y91.829 E32.54142
G1 X133.447 Y91.914 E32.56772
G1 X134.090 Y92.008 E32.64570
G1 X134.308 Y92.039 E32.67212
G1 X134.674 Y91.998 E32.71631
G1 X134.674 Y131.002 E37.39679
G1 X134.309 Y130.961 E37.44087
G1 X133.448 Y131.085 E37.54526
G1 X132.646 Y131.423 E37.64969
G1 X131.956 Y131.956 E37.75432
G1 X131.560 Y132.470 E37.83218
G1 X131.425 Y132.644 E37.85861
G1 X131.171 Y133.245 E37.93691
G1 X131.086 Y133.447 E37.96321
G1 X130.992 Y134.090 E38.04119
G1 X130.961 Y134.308 E38.06761
G1 X131.002 Y134.674 E38.11180
G1 X92.014 Y134.674 E42.79036
G1 X92.037 Y134.333 E42.83138
G1 X91.956 Y133.708 E42.90700
G1 X91.926 Y133.489 E42.93353
G1 X91.595 Y132.678 E43.03864
G1 X91.198 Y132.152 E43.11772
G1 X91.065 Y131.978 E43.14400
G1 X90.547 Y131.571 E43.22306
G1 X90.374 Y131.436 E43.24939
G1 X89.771 Y131.177 E43.32814
G1 X89.568 Y131.090 E43.35464
G1 X88.701 Y130.961 E43.45983
G1 X88.326 Y131.003 E43.50511
G1 X88.325 Y91.997 E48.18583
G1 X88.700 Y92.039 E48.23111
G1 X89.567 Y91.911 E48.33628
G1 X90.374 Y91.564 E48.44169
G1 X91.064 Y91.023 E48.54691
G1 X91.594 Y90.324 E48.65217
G1 X91.926 Y89.511 E48.75756
G1 X92.037 Y88.668 E48.85959
G0 F9000 X95.328 Y94.277
G1 F1800 X94.864 Y94.571 E48.92550
G1 X94.487 Y94.971 E48.99146
G1 X94.221 Y95.454 E49.05763
G1 X94.086 Y95.987 E49.12361
G1 X94.086 Y96.534 E49.18925
G1 X94.221 Y97.067 E49.25523
G1 X94.487 Y97.550 E49.32140
G1 X94.864 Y97.950 E49.38736
G1 X95.328 Y98.244 E49.45328
G1 X95.850 Y98.414 E49.51915
G1 X96.398 Y98.449 E49.58505
G1 X96.938 Y98.345 E49.65104
G1 X97.435 Y98.112 E49.71691
G1 X97.859 Y97.761 E49.78296
G1 X98.182 Y97.316 E49.84894
G1 X98.384 Y96.805 E49.91488
G1 X98.453 Y96.261 E49.98068
G1 X98.384 Y95.716 E50.04661
G1 X98.182 Y95.205 E50.11254
G1 X97.855 Y94.757 E50.17910
G1 X97.435 Y94.409 E50.24455
G1 X96.938 Y94.176 E50.31042
G1 X96.398 Y94.072 E50.37641
G1 X95.850 Y94.107 E50.44231
G1 X95.328 Y94.277 E50.50819
G0 F9000 X96.937 Y94.178
G0 X98.181 Y95.206
G0 X98.381 Y96.804
G0 X102.484 Y102.191
G1 F1800 X102.107 Y102.591 E50.57414
G1 X101.841 Y103.074 E50.64031
G1 X101.706 Y103.607 E50.70629
G1 X101.706 Y104.154 E50.77193
G1 X101.841 Y104.687 E50.83791
G1 X102.107 Y105.170 E50.90408
G1 X102.484 Y105.570 E50.97004
G1 X102.948 Y105.864 E51.03596
G1 X103.470 Y106.034 E51.10183
G1 X104.018 Y106.069 E51.16773
G1 X104.558 Y105.965 E51.23372
G1 X105.055 Y105.732 E51.29959
G1 X105.479 Y105.381 E51.36564
G1 X105.802 Y104.936 E51.43162
G1 X106.004 Y104.425 E51.49756
G1 X106.073 Y103.881 E51.56336
G1 X106.004 Y103.336 E51.62929
G1 X105.802 Y102.825 E51.69522
G1 X105.475 Y102.377 E51.76178
G1 X105.055 Y102.029 E51.82723
G1 X104.558 Y101.796 E51.89310
G1 X104.018 Y101.692 E51.95909
G1 X103.470 Y101.727 E52.02499
G1 X102.948 Y101.897 E52.09087
G1 X102.484 Y102.191 E52.15678
G0 F9000 X109.727 Y97.550
G1 F1800 X110.104 Y97.950 E52.22274
G1 X110.568 Y98.244 E52.28866
G1 X111.089 Y98.414 E52.35442
G1 X111.637 Y98.449 E52.42032
G1 X112.177 Y98.345 E52.48631
G1 X112.674 Y98.112 E52.55218
G1 X113.098 Y97.761 E52.61823
G1 X113.421 Y97.316 E52.68421
G1 X113.623 Y96.805 E52.75015
G1 X113.692 Y96.261 E52.81595
G1 X113.623 Y95.716 E52.88187
G1 X113.421 Y95.205 E52.94781
G1 X113.094 Y94.757 E53.01437
G1 X112.674 Y94.409 E53.07982
G1 X112.177 Y94.176 E53.14569
G1 X111.637 Y94.072 E53.21168
G1 X111.089 Y94.107 E53.27757
G1 X110.568 Y94.277 E53.34334
G1 X110.104 Y94.571 E53.40926
G1 X109.727 Y94.971 E53.47521
G1 X109.461 Y95.454 E53.54138
G1 X109.326 Y95.987 E53.60736
G1 X109.326 Y96.534 E53.67300
G1 X109.461 Y97.067 E53.73898
G1 X109.727 Y97.550 E53.80515
G0 F9000 X117.346 Y102.591
G1 F1800 X117.080 Y103.074 E53.87132
G1 X116.945 Y103.607 E53.93730
G1 X116.945 Y104.154 E54.00294
G1 X117.080 Y104.687 E54.06892
G1 X117.346 Y105.170 E54.13509
G1 X117.723 Y105.570 E54.20105
G1 X118.187 Y105.864 E54.26696
G1 X118.709 Y106.034 E54.33284
G1 X119.257 Y106.069 E54.39873
G1 X119.797 Y105.965 E54.46473
G1 X120.294 Y105.732 E54.53059
G1 X120.718 Y105.381 E54.59665
G1 X121.041 Y104.936 E54.66263
G1 X121.243 Y104.425 E54.72857
G1 X121.312 Y103.881 E54.79437
G1 X121.243 Y103.336 E54.86029
G1 X121.041 Y102.825 E54.92623
G1 X120.714 Y102.377 E54.99279
G1 X120.294 Y102.029 E55.05824
G1 X119.797 Y101.796 E55.12411
G1 X119.257 Y101.692 E55.19010
G1 X118.709 Y101.727 E55.25599
G1 X118.187 Y101.897 E55.32187
G1 X117.723 Y102.191 E55.38779
G1 X117.346 Y102.591 E55.45375
G0 F9000 X112.674 Y109.649
G1 F1800 X112.177 Y109.416 E55.51962
G1 X111.637 Y109.312 E55.58561
G1 X111.089 Y109.347 E55.65150
G1 X110.568 Y109.517 E55.71727
G1 X110.104 Y109.811 E55.78318
G1 X109.727 Y110.211 E55.84914
G1 X109.461 Y110.694 E55.91531
G1 X109.326 Y111.227 E55.98129
G1 X109.326 Y111.773 E56.04681
G1 X109.461 Y112.306 E56.11279
G1 X109.727 Y112.789 E56.17896
G1 X110.104 Y113.189 E56.24492
G1 X110.568 Y113.483 E56.31083
G1 X111.089 Y113.653 E56.37660
G1 X111.637 Y113.688 E56.44249
G1 X112.177 Y113.584 E56.50848
G1 X112.674 Y113.351 E56.57435
G1 X113.098 Y113.000 E56.64040
G1 X113.421 Y112.555 E56.70639
G1 X113.623 Y112.044 E56.77232
G1 X113.692 Y111.500 E56.83813
G1 X113.623 Y110.956 E56.90393
G1 X113.421 Y110.445 E56.96987
G1 X113.094 Y109.997 E57.03642
G1 X112.674 Y109.649 E57.10188
G0 F9000 X111.090 Y109.349
G0 X109.729 Y110.213
G0 X109.328 Y111.772
G0 X105.475 Y117.616
G1 F1800 X105.055 Y117.268 E57.16733
G1 X104.558 Y117.035 E57.23320
G1 X104.018 Y116.931 E57.29919
G1 X103.470 Y116.966 E57.36508
G1 X102.948 Y117.136 E57.43096
G1 X102.484 Y117.430 E57.49688
G1 X102.107 Y117.830 E57.56284
G1 X101.841 Y118.313 E57.62901
G1 X101.706 Y118.846 E57.69499
G1 X101.706 Y119.393 E57.76063
G1 X101.841 Y119.926 E57.82660
G1 X102.107 Y120.409 E57.89277
G1 X102.484 Y120.809 E57.95873
G1 X102.948 Y121.103 E58.02465
G1 X103.470 Y121.273 E58.09053
G1 X104.018 Y121.308 E58.15642
G1 X104.558 Y121.204 E58.22241
G1 X105.055 Y120.971 E58.28828
G1 X105.479 Y120.620 E58.35433
G1 X105.802 Y120.175 E58.42032
G1 X106.004 Y119.664 E58.48625
G1 X106.073 Y119.119 E58.55218
G1 X106.004 Y118.575 E58.61798
G1 X105.802 Y118.064 E58.68392
G1 X105.475 Y117.616 E58.75047
G0 F9000 X106.071 Y119.119
G0 X105.477 Y120.618
G0 X104.018 Y121.305
G0 X97.855 Y125.236
G1 F1800 X97.435 Y124.888 E58.81593
G1 X96.938 Y124.655 E58.88180
G1 X96.398 Y124.551 E58.94779
G1 X95.850 Y124.586 E59.01368
G1 X95.328 Y124.756 E59.07956
G1 X94.864 Y125.050 E59.14547
G1 X94.487 Y125.450 E59.21143
G1 X94.221 Y125.933 E59.27760
G1 X94.086 Y126.466 E59.34358
G1 X94.086 Y127.013 E59.40922
G1 X94.221 Y127.546 E59.47520
G1 X94.487 Y128.029 E59.54137
G1 X94.864 Y128.429 E59.60733
G1 X95.328 Y128.723 E59.67325
G1 X95.850 Y128.893 E59.73912
G1 X96.398 Y128.928 E59.80502
G1 X96.938 Y128.824 E59.87101
G1 X97.435 Y128.591 E59.93688
G1 X97.859 Y128.240 E60.00293
G1 X98.182 Y127.795 E60.06891
G1 X98.384 Y127.284 E60.13485
G1 X98.453 Y126.739 E60.20077
G1 X98.384 Y126.195 E60.26658
G1 X98.182 Y125.684 E60.33251
G1 X97.855 Y125.236 E60.39907
G0 F9000 X109.326 Y126.466
G1 F1800 X109.326 Y127.013 E60.46471
G1 X109.461 Y127.546 E60.53069
G1 X109.727 Y128.029 E60.59686
G1 X110.104 Y128.429 E60.66282
G1 X110.568 Y128.723 E60.72873
G1 X111.089 Y128.893 E60.79450
G1 X111.637 Y128.928 E60.86039
G1 X112.177 Y128.824 E60.92638
G1 X112.674 Y128.591 E60.99225
G1 X113.098 Y128.240 E61.05830
G1 X113.421 Y127.795 E61.12429
G1 X113.623 Y127.284 E61.19023
G1 X113.692 Y126.739 E61.25615
G1 X113.623 Y126.195 E61.32195
G1 X113.421 Y125.684 E61.38789
G1 X113.094 Y125.236 E61.45445
G1 X112.674 Y124.888 E61.51990
G1 X112.177 Y124.655 E61.58577
G1 X111.637 Y124.551 E61.65176
G1 X111.089 Y124.586 E61.71765
G1 X110.568 Y124.756 E61.78342
G1 X110.104 Y125.050 E61.84933
G1 X109.727 Y125.450 E61.91529
G1 X109.461 Y125.933 E61.98146
G1 X109.326 Y126.466 E62.04744
G0 F9000 X110.105 Y125.051
G0 X111.090 Y124.588
G0 X117.346 Y120.409
G1 F1800 X117.723 Y120.809 E62.11340
G1 X118.187 Y121.103 E62.17932
G1 X118.709 Y121.273 E62.24519
G1 X119.257 Y121.308 E62.31109
G1 X119.797 Y121.204 E62.37708
G1 X120.294 Y120.971 E62.44295
G1 X120.718 Y120.620 E62.50900
G1 X121.041 Y120.175 E62.57498
G1 X121.243 Y119.664 E62.64092
G1 X121.312 Y119.119 E62.70684
G1 X121.243 Y118.575 E62.77265
G1 X121.041 Y118.064 E62.83858
G1 X120.714 Y117.616 E62.90514
G1 X120.294 Y117.268 E62.97059
G1 X119.797 Y117.035 E63.03646
G1 X119.257 Y116.931 E63.10245
G1 X118.709 Y116.966 E63.16835
G1 X118.187 Y117.136 E63.23422
G1 X117.723 Y117.430 E63.30014
G1 X117.346 Y117.830 E63.36610
G1 X117.080 Y118.313 E63.43227
G1 X116.945 Y118.846 E63.49825
G1 X116.945 Y119.393 E63.56389
G1 X117.080 Y119.926 E63.62987
G1 X117.346 Y120.409 E63.69604
G0 F9000 X116.947 Y118.847
G0 X117.724 Y117.431
G0 X119.257 Y116.934
G0 X125.343 Y113.189
G1 F1800 X125.807 Y113.483 E63.76195
G1 X126.329 Y113.653 E63.82783
G1 X126.877 Y113.688 E63.89372
G1 X127.417 Y113.584 E63.95972
G1 X127.914 Y113.351 E64.02558
G1 X128.338 Y113.000 E64.09164
G1 X128.661 Y112.555 E64.15762
G1 X128.863 Y112.044 E64.22356
G1 X128.932 Y111.500 E64.28936
G1 X128.863 Y110.956 E64.35516
G1 X128.661 Y110.445 E64.42110
G1 X128.334 Y109.997 E64.48766
G1 X127.914 Y109.649 E64.55311
G1 X127.417 Y109.416 E64.61898
G1 X126.877 Y109.312 E64.68497
G1 X126.329 Y109.347 E64.75086
G1 X125.807 Y109.517 E64.81674
G1 X125.343 Y109.811 E64.88266
G1 X124.966 Y110.211 E64.94862
G1 X124.700 Y110.694 E65.01479
G1 X124.565 Y111.227 E65.08077
G1 X124.565 Y111.773 E65.14629
G1 X124.700 Y112.306 E65.21227
G1 X124.966 Y112.789 E65.27843
G1 X125.343 Y113.189 E65.34439
G0 F9000 X124.567 Y111.772
G0 X124.968 Y110.213
G0 X126.329 Y98.414
G1 F1800 X126.877 Y98.449 E65.41029
G1 X127.417 Y98.345 E65.47628
G1 X127.914 Y98.112 E65.54215
G1 X128.338 Y97.761 E65.60820
G1 X128.661 Y97.316 E65.67418
G1 X128.863 Y96.805 E65.74012
G1 X128.932 Y96.261 E65.80592
G1 X128.863 Y95.716 E65.87185
G1 X128.661 Y95.205 E65.93778
G1 X128.334 Y94.757 E66.00434
G1 X127.914 Y94.409 E66.06979
G1 X127.417 Y94.176 E66.13566
G1 X126.877 Y94.072 E66.20165
G1 X126.329 Y94.107 E66.26755
G1 X125.807 Y94.277 E66.33343
G1 X125.343 Y94.571 E66.39934
G1 X124.966 Y94.971 E66.46530
G1 X124.700 Y95.454 E66.53147
G1 X124.565 Y95.987 E66.59745
G1 X124.565 Y96.534 E66.66309
G1 X124.700 Y97.067 E66.72907
G1 X124.966 Y97.550 E66.79524
G1 X125.343 Y97.950 E66.86120
G1 X125.807 Y98.244 E66.92711
G1 X126.329 Y98.414 E66.99299
G0 F9000 X124.567 Y111.772
G0 X125.344 Y113.188
G0 X126.877 Y124.551
G1 F1800 X126.329 Y124.586 E67.05888
G1 X125.807 Y124.756 E67.12476
G1 X125.343 Y125.050 E67.19068
G1 X124.966 Y125.450 E67.25664
G1 X124.700 Y125.933 E67.32281
G1 X124.565 Y126.466 E67.38879
G1 X124.565 Y127.013 E67.45443
G1 X124.700 Y127.546 E67.52041
G1 X124.966 Y128.029 E67.58657
G1 X125.343 Y128.429 E67.65253
G1 X125.807 Y128.723 E67.71845
G1 X126.329 Y128.893 E67.78433
G1 X126.877 Y128.928 E67.85022
G1 X127.417 Y128.824 E67.91621
G1 X127.914 Y128.591 E67.98208
G1 X128.338 Y128.240 E68.04813
G1 X128.661 Y127.795 E68.11412
G1 X128.863 Y127.284 E68.18006
G1 X128.932 Y126.739 E68.24598
G1 X128.863 Y126.195 E68.31178
G1 X128.661 Y125.684 E68.37772
G1 X128.334 Y125.236 E68.44428
G1 X127.914 Y124.888 E68.50973
G1 X127.417 Y124.655 E68.57560
G1 X126.877 Y124.551 E68.64159
G0 F9000 X98.182 Y112.555
G1 F1800 X98.384 Y112.044 E68.70752
G1 X98.453 Y111.500 E68.77333
G1 X98.384 Y110.956 E68.83913
G1 X98.182 Y110.445 E68.90507
G1 X97.855 Y109.997 E68.97163
G1 X97.435 Y109.649 E69.03708
G1 X96.938 Y109.416 E69.10295
G1 X96.398 Y109.312 E69.16894
G1 X95.850 Y109.347 E69.23483
G1 X95.328 Y109.517 E69.30071
G1 X94.864 Y109.811 E69.36663
G1 X94.487 Y110.211 E69.43259
G1 X94.221 Y110.694 E69.49875
G1 X94.086 Y111.227 E69.56473
G1 X94.086 Y111.773 E69.63025
G1 X94.221 Y112.306 E69.69623
G1 X94.487 Y112.789 E69.76240
G1 X94.864 Y113.189 E69.82836
G1 X95.328 Y113.483 E69.89428
G1 X95.850 Y113.653 E69.96016
G1 X96.398 Y113.688 E70.02605
G1 X96.938 Y113.584 E70.09204
G1 X97.435 Y113.351 E70.15791
G1 X97.859 Y113.000 E70.22396
G1 X98.182 Y112.555 E70.28995
G0 F9000 X97.829 Y112.361
;TYPE:WALL-OUTER
G1 F1800 X97.993 Y111.944 E70.34372
G1 X98.050 Y111.500 E70.39743
G1 X97.993 Y111.056 E70.45115
G1 X97.829 Y110.639 E70.50492
G1 X97.564 Y110.275 E70.55895
G1 X97.219 Y109.990 E70.61265
G1 X96.813 Y109.799 E70.66649
G1 X96.373 Y109.715 E70.72025
G1 X95.925 Y109.743 E70.77411
G1 X95.499 Y109.882 E70.82788
G1 X95.121 Y110.122 E70.88161
G1 X94.813 Y110.448 E70.93543
G1 X94.596 Y110.842 E70.98941
G1 X94.486 Y111.277 E71.04325
G1 X94.486 Y111.723 E71.09677
G1 X94.596 Y112.158 E71.15061
G1 X94.813 Y112.552 E71.20459
G1 X95.121 Y112.878 E71.25841
G1 X95.499 Y113.118 E71.31214
G1 X95.925 Y113.257 E71.36591
G1 X96.373 Y113.285 E71.41978
G1 X96.813 Y113.201 E71.47353
G1 X97.219 Y113.010 E71.52737
G1 X97.565 Y112.724 E71.58124
G1 X97.829 Y112.361 E71.63510
G0 F9000 X98.107 Y112.471
G0 X102.581 Y117.487
G0 X102.741 Y117.741
G1 F1800 X102.433 Y118.067 E71.68892
G1 X102.216 Y118.461 E71.74290
G1 X102.106 Y118.896 E71.79674
G1 X102.106 Y119.343 E71.85038
G1 X102.216 Y119.778 E71.90422
G1 X102.433 Y120.172 E71.95820
G1 X102.741 Y120.498 E72.01202
G1 X103.119 Y120.738 E72.06575
G1 X103.545 Y120.877 E72.11952
G1 X103.993 Y120.905 E72.17339
G1 X104.433 Y120.821 E72.22714
G1 X104.839 Y120.630 E72.28098
G1 X105.185 Y120.344 E72.33485
G1 X105.449 Y119.981 E72.38871
G1 X105.613 Y119.564 E72.44248
G1 X105.670 Y119.119 E72.49632
G1 X105.613 Y118.675 E72.55004
G1 X105.449 Y118.258 E72.60381
G1 X105.184 Y117.894 E72.65784
G1 X104.839 Y117.609 E72.71154
G1 X104.433 Y117.418 E72.76538
G1 X103.993 Y117.334 E72.81913
G1 X103.545 Y117.362 E72.87300
G1 X103.119 Y117.501 E72.92677
G1 X102.741 Y117.741 E72.98050
G0 F9000 X102.581 Y117.487
G0 X109.835 Y112.756
G0 X110.053 Y112.552
G1 F1800 X110.361 Y112.878 E73.03432
G1 X110.739 Y113.118 E73.08805
G1 X111.165 Y113.257 E73.14182
G1 X111.612 Y113.285 E73.19557
G1 X112.052 Y113.201 E73.24932
G1 X112.458 Y113.010 E73.30316
G1 X112.804 Y112.724 E73.35703
G1 X113.068 Y112.361 E73.41089
G1 X113.232 Y111.944 E73.46466
G1 X113.289 Y111.500 E73.51838
G1 X113.232 Y111.056 E73.57210
G1 X113.068 Y110.639 E73.62587
G1 X112.803 Y110.275 E73.67990
G1 X112.458 Y109.990 E73.73360
G1 X112.052 Y109.799 E73.78744
G1 X111.612 Y109.715 E73.84119
G1 X111.165 Y109.743 E73.89494
G1 X110.739 Y109.882 E73.94871
G1 X110.361 Y110.122 E74.00244
G1 X110.053 Y110.448 E74.05626
G1 X109.836 Y110.842 E74.11024
G1 X109.726 Y111.277 E74.16408
G1 X109.726 Y111.723 E74.21760
G1 X109.836 Y112.158 E74.27144
G1 X110.053 Y112.552 E74.32542
G0 F9000 X109.835 Y112.756
G0 X105.029 Y105.624
G0 X104.839 Y105.391
G1 F1800 X105.185 Y105.105 E74.37929
G1 X105.449 Y104.742 E74.43315
G1 X105.613 Y104.325 E74.48692
G1 X105.670 Y103.881 E74.54064
G1 X105.613 Y103.436 E74.59447
G1 X105.449 Y103.019 E74.64824
G1 X105.184 Y102.655 E74.70227
G1 X104.839 Y102.370 E74.75597
G1 X104.433 Y102.179 E74.80981
G1 X103.993 Y102.095 E74.86357
G1 X103.545 Y102.123 E74.91743
G1 X103.119 Y102.262 E74.97121
G1 X102.741 Y102.502 E75.02494
G1 X102.433 Y102.828 E75.07875
G1 X102.216 Y103.222 E75.13273
G1 X102.106 Y103.657 E75.18657
G1 X102.106 Y104.104 E75.24021
G1 X102.216 Y104.539 E75.29406
G1 X102.433 Y104.933 E75.34803
G1 X102.741 Y105.259 E75.40185
G1 X103.119 Y105.499 E75.45558
G1 X103.545 Y105.638 E75.50936
G1 X103.993 Y105.666 E75.56322
