;Generated with Cura_SteamEngine 15.04.6
M109 S185.0     ;Set Nozzle Temp and Wait
M190 S60.0      ;Set Bed Temp and Wait
G21           ;metric values
G90           ;absolute positioning
G28           ;Home
G1 Z15.0 F300 ;move the platform down 15mm
G92 E0        ;zero the extruded length
G1 F200 E5    ;extrude 5mm of feed stock
G92 E0        ;zero the extruded length again

;Layer count: 570
;LAYER:0
M107
G0 F12000 X-3.976 Y5.516 Z0.300
;TYPE:WALL-INNER
G1 F1200 X-6.928 Y3.812 E0.08680
G1 X-7.618 Y3.412 E0.10711
G1 X-11.263 Y5.516 E0.21428
G1 X-11.263 Y9.723 E0.32141
G1 X-8.309 Y11.428 E0.40826
G1 X-7.620 Y11.827 E0.42854
G1 X-4.665 Y10.121 E0.51543
G1 X-3.976 Y9.722 E0.53570
G1 X-3.976 Y5.516 E0.64281
G0 F12000 X3.976 Y5.516
G1 F1200 X3.976 Y9.723 E0.74994
G1 X6.928 Y11.427 E0.83673
G1 X7.618 Y11.827 E0.85704
G1 X10.573 Y10.121 E0.94393
G1 X11.263 Y9.722 E0.96423
G1 X11.263 Y5.516 E1.07133
G1 X8.309 Y3.811 E1.15819
G1 X7.620 Y3.412 E1.17846
G1 X3.976 Y5.516 E1.28561
G0 F12000 X7.618 Y-3.412
G1 F1200 X11.263 Y-5.516 E1.39279
G1 X11.263 Y-9.723 E1.49992
G1 X8.309 Y-11.428 E1.58677
G1 X7.620 Y-11.827 E1.60704
G1 X4.665 Y-10.121 E1.69393
G1 X3.976 Y-9.722 E1.71421
G1 X3.976 Y-5.516 E1.82131
G1 X6.928 Y-3.812 E1.90811
G1 X7.618 Y-3.412 E1.92842
G0 F12000 X-3.976 Y-5.516
G1 F1200 X-3.976 Y-9.723 E2.03555
G1 X-6.928 Y-11.427 E2.12235
G1 X-7.618 Y-11.827 E2.14266
G1 X-10.573 Y-10.121 E2.22955
G1 X-11.263 Y-9.722 E2.24984
G1 X-11.263 Y-5.516 E2.35695
G1 X-8.309 Y-3.811 E2.44380
G1 X-7.620 Y-3.412 E2.46408
G1 X-3.976 Y-5.516 E2.57123
G0 F12000 X-19.216 Y-20.757
G1 F1200 X-19.216 Y-24.963 E2.67833
G1 X-22.170 Y-26.668 E2.76519
G1 X-22.859 Y-27.067 E2.78546
G1 X-25.815 Y-25.361 E2.87237
G1 X-26.503 Y-24.961 E2.89264
G1 X-26.503 Y-20.756 E2.99972
G1 X-23.551 Y-19.052 E3.08651
G1 X-22.861 Y-18.652 E3.10682
G1 X-19.906 Y-20.358 E3.19371
G1 X-19.216 Y-20.757 E3.21401
G0 F12000 X19.216 Y-20.756
G1 F1200 X22.170 Y-19.051 E3.30086
G1 X22.859 Y-18.652 E3.32114
G1 X25.814 Y-20.358 E3.40802
G1 X26.503 Y-20.757 E3.42830
G1 X26.503 Y-24.963 E3.53540
G1 X23.551 Y-26.667 E3.62220
G1 X22.861 Y-27.067 E3.64251
G1 X19.906 Y-25.361 E3.72940
G1 X19.216 Y-24.962 E3.74970
G1 X19.216 Y-20.756 E3.85680
G0 F12000 X22.861 Y18.652
G1 F1200 X19.216 Y20.756 E3.96397
G1 X19.216 Y24.963 E4.07110
G1 X22.860 Y27.066 E4.17824
G1 X25.814 Y25.361 E4.26510
G1 X26.503 Y24.962 E4.28537
G1 X26.503 Y20.756 E4.39248
G1 X23.551 Y19.052 E4.47927
G1 X22.861 Y18.652 E4.49958
G0 F12000 X27.675 Y27.675
G1 F1200 X-27.675 Y27.675 E5.90906
G1 X-27.675 Y-27.675 E7.31854
G1 X27.675 Y-27.675 E8.72801
G1 X27.675 Y27.675 E10.13749
G0 F12000 X-19.216 Y24.962
G1 F1200 X-19.216 Y20.756 E10.24459
G1 X-22.170 Y19.051 E10.33145
G1 X-22.859 Y18.652 E10.35172
G1 X-26.503 Y20.756 E10.45887
G1 X-26.503 Y24.963 E10.56600
G1 X-23.551 Y26.667 E10.65280
G1 X-22.861 Y27.067 E10.67311
G1 X-19.906 Y25.361 E10.76000
G1 X-19.216 Y24.962 E10.78029
G0 F12000 X-19.816 Y24.616
;TYPE:WALL-OUTER
G1 F1200 X-19.816 Y21.103 E10.86975
G1 X-22.860 Y19.346 E10.95925
G1 X-25.903 Y21.103 E11.04873
G1 X-25.903 Y24.616 E11.13819
G1 X-22.860 Y26.373 E11.22767
G1 X-19.816 Y24.616 E11.31717
G0 F12000 X-28.275 Y28.275
G1 F1200 X-28.275 Y-28.275 E12.75720
G1 X28.275 Y-28.275 E14.19724
G1 X28.275 Y28.275 E15.63727
G1 X-28.275 Y28.275 E17.07730
G0 F12000 X-10.663 Y9.376
G1 F1200 X-7.619 Y11.133 E17.16680
G1 X-4.576 Y9.376 E17.25628
G1 X-4.576 Y5.863 E17.34574
G1 X-7.619 Y4.106 E17.43522
G1 X-10.663 Y5.863 E17.52472
G1 X-10.663 Y9.376 E17.61418
G0 F12000 X-7.619 Y-4.106
G1 F1200 X-4.576 Y-5.863 E17.70366
G1 X-4.576 Y-9.376 E17.79311
G1 X-7.619 Y-11.133 E17.88259
G1 X-10.663 Y-9.376 E17.97209
G1 X-10.663 Y-5.863 E18.06155
G1 X-7.619 Y-4.106 E18.15105
G0 F12000 X4.576 Y-5.863
G1 F1200 X7.619 Y-4.106 E18.24053
G1 X10.663 Y-5.863 E18.33003
G1 X10.663 Y-9.376 E18.41949
G1 X7.619 Y-11.133 E18.50899
G1 X4.576 Y-9.376 E18.59847
G1 X4.576 Y-5.863 E18.68793
G0 F12000 X7.619 Y4.106
G1 F1200 X4.576 Y5.863 E18.77740
G1 X4.576 Y9.376 E18.86686
G1 X7.619 Y11.133 E18.95634
G1 X10.663 Y9.376 E19.04584
G1 X10.663 Y5.863 E19.13530
G1 X7.619 Y4.106 E19.22480
G0 F12000 X19.816 Y21.103
G1 F1200 X19.816 Y24.616 E19.31426
G1 X22.860 Y26.373 E19.40376
G1 X25.903 Y24.616 E19.49324
G1 X25.903 Y21.103 E19.58269
G1 X22.860 Y19.346 E19.67217
G1 X19.816 Y21.103 E19.76167
G0 F12000 X22.860 Y-19.346
G1 F1200 X25.903 Y-21.103 E19.85115
G1 X25.903 Y-24.616 E19.94061
G1 X22.860 Y-26.373 E20.03009
G1 X19.816 Y-24.616 E20.11959
G1 X19.816 Y-21.103 E20.20905
G1 X22.860 Y-19.346 E20.29855
G0 F12000 X-19.816 Y-21.103
G1 F1200 X-19.816 Y-24.616 E20.38801
G1 X-22.860 Y-26.373 E20.47751
G1 X-25.514 Y-24.842 E20.55553
G1 X-25.903 Y-24.616 E20.56698
G1 X-25.903 Y-21.103 E20.65644
G1 X-22.860 Y-19.346 E20.74592
G1 X-19.816 Y-21.103 E20.83542
G0 F12000 X-19.006 Y-21.127
;TYPE:SKIN
G1 F1200 X-9.094 Y-11.216 E21.19236
G0 F12000 X-8.556 Y-11.526
G1 F1200 X-19.006 Y-21.976 E21.56869
G0 F12000 X-19.006 Y-22.824
G1 F1200 X-8.018 Y-11.836 E21.96440
G0 F12000 X-7.105 Y-11.772
G1 F1200 X-19.006 Y-23.673 E22.39299
G0 F12000 X-19.006 Y-24.521
G1 F1200 X-5.096 Y-10.611 E22.89392
G0 F12000 X-3.766 Y-9.281
G1 F1200 X10.142 Y4.627 E23.39479
G0 F12000 X11.472 Y5.956
G1 F1200 X25.382 Y19.866 E23.89572
G0 F12000 X27.464 Y19.403
G1 F1200 X-19.403 Y-27.464 E25.58353
G0 F12000 X-18.555 Y-27.464
G1 F1200 X27.464 Y18.555 E27.24079
G0 F12000 X27.464 Y17.706
G1 F1200 X5.181 Y-4.576 E28.04325
G0 F12000 X3.766 Y-5.992
G1 F1200 X-17.706 Y-27.464 E28.81651
G0 F12000 X-16.858 Y-27.464
G1 F1200 X3.766 Y-6.840 E29.55923
G0 F12000 X3.766 Y-7.689
G1 F1200 X-16.009 Y-27.464 E30.27139
G0 F12000 X-15.161 Y-27.464
G1 F1200 X3.766 Y-8.537 E30.95300
G0 F12000 X3.766 Y-9.386
G1 F1200 X-14.312 Y-27.464 E31.60403
G0 F12000 X-13.464 Y-27.464
G1 F1200 X4.014 Y-9.986 E32.23346
G0 F12000 X4.552 Y-10.296
G1 F1200 X-12.615 Y-27.464 E32.85171
G0 F12000 X-11.766 Y-27.464
G1 F1200 X5.089 Y-10.608 E33.45872
G0 F12000 X5.627 Y-10.918
G1 F1200 X-10.918 Y-27.464 E34.05457
G0 F12000 X-10.069 Y-27.464
G1 F1200 X6.165 Y-11.228 E34.63923
G0 F12000 X6.704 Y-11.539
G1 F1200 X-9.221 Y-27.464 E35.21274
G0 F12000 X-8.372 Y-27.464
G1 F1200 X7.241 Y-11.850 E35.77502
G0 F12000 X8.215 Y-11.724
G1 F1200 X-7.524 Y-27.464 E36.34184
G0 F12000 X-6.675 Y-27.464
G1 F1200 X10.223 Y-10.565 E36.95040
G0 F12000 X11.472 Y-9.316
G1 F1200 X27.464 Y6.675 E37.52630
G0 F12000 X27.464 Y5.827
G1 F1200 X-5.827 Y-27.464 E38.72519
G0 F12000 X-4.978 Y-27.464
G1 F1200 X27.464 Y4.978 E39.89352
G0 F12000 X27.464 Y4.130
G1 F1200 X-4.130 Y-27.464 E41.03130
G0 F12000 X-3.281 Y-27.464
G1 F1200 X27.464 Y3.281 E42.13851
G0 F12000 X27.464 Y2.433
G1 F1200 X-2.433 Y-27.464 E43.21518
G0 F12000 X-1.584 Y-27.464
G1 F1200 X27.464 Y1.584 E44.26127
G0 F12000 X27.464 Y0.736
G1 F1200 X-0.736 Y-27.464 E45.27683
G0 F12000 X0.112 Y-27.464
G1 F1200 X27.464 Y-0.112 E46.26185
G0 F12000 X27.464 Y-0.960
G1 F1200 X0.960 Y-27.464 E47.21633
G0 F12000 X1.809 Y-27.464
G1 F1200 X27.464 Y-1.809 E48.14023
G0 F12000 X27.464 Y-2.658
G1 F1200 X2.658 Y-27.464 E49.03356
G0 F12000 X3.506 Y-27.464
G1 F1200 X27.464 Y-3.506 E49.89635
G0 F12000 X27.464 Y-4.355
G1 F1200 X4.355 Y-27.464 E50.72857
G0 F12000 X5.203 Y-27.464
G1 F1200 X27.464 Y-5.203 E51.53025
G0 F12000 X27.464 Y-6.052
G1 F1200 X6.052 Y-27.464 E52.30135
G0 F12000 X6.900 Y-27.464
G1 F1200 X27.464 Y-6.900 E53.04192
G0 F12000 X27.464 Y-7.749
G1 F1200 X7.749 Y-27.464 E53.75190
G0 F12000 X8.597 Y-27.464
G1 F1200 X27.464 Y-8.597 E54.43136
G0 F12000 X27.464 Y-9.446
G1 F1200 X9.446 Y-27.464 E55.08023
G0 F12000 X10.294 Y-27.464
G1 F1200 X27.464 Y-10.294 E55.69857
G0 F12000 X27.464 Y-11.143
G1 F1200 X11.143 Y-27.464 E56.28633
G0 F12000 X11.991 Y-27.464
G1 F1200 X27.464 Y-11.991 E56.84355
G0 F12000 X27.464 Y-12.840
G1 F1200 X20.579 Y-19.725 E57.09150
G0 F12000 X22.587 Y-18.566
G1 F1200 X27.464 Y-13.688 E57.26715
G0 F12000 X27.464 Y-14.537
G1 F1200 X23.323 Y-18.678 E57.41628
G0 F12000 X23.861 Y-18.989
G1 F1200 X27.464 Y-15.385 E57.54605
G0 F12000 X27.464 Y-16.234
G1 F1200 X24.399 Y-19.299 E57.65643
G0 F12000 X24.937 Y-19.610
G1 F1200 X27.464 Y-17.082 E57.74745
G0 F12000 X27.464 Y-17.931
G1 F1200 X25.475 Y-19.920 E57.81908
G0 F12000 X26.013 Y-20.231
G1 F1200 X27.464 Y-18.780 E57.87134
G0 F12000 X27.464 Y-19.628
G1 F1200 X26.551 Y-20.542 E57.90424
G0 F12000 X26.712 Y-21.229
G1 F1200 X27.464 Y-20.901 E57.93129
G1 X27.088 Y-22.125 E57.95835
G1 X27.088 Y-22.974 E57.98541
G1 X27.088 Y-23.823 E58.01247
G1 X26.712 Y-24.623 E58.03498
G0 F12000 X27.464 Y-24.719
G1 F1200 X24.719 Y-27.464 E58.13384
G0 F12000 X23.871 Y-27.464
G1 F1200 X25.621 Y-25.714 E58.19686
G0 F12000 X25.568 Y-27.464
G1 F1200 X27.464 Y-25.568 E58.26514
G0 F12000 X27.464 Y-26.416
G1 F1200 X26.416 Y-27.464 E58.30288
G0 F12000 X27.265 Y-27.464
G1 F1200 X27.464 Y-27.265 E58.31005
G0 F12000 X23.613 Y-26.874
G1 F1200 X22.773 Y-27.289 E58.33132
G1 X22.080 Y-27.134 E58.34389
G1 X21.325 Y-27.464 E58.36487
G0 F12000 X20.477 Y-27.464
G1 F1200 X21.448 Y-26.493 E58.39984
G0 F12000 X20.910 Y-26.182
G1 F1200 X19.628 Y-27.464 E58.44601
G0 F12000 X18.780 Y-27.464
G1 F1200 X20.372 Y-25.872 E58.50334
G0 F12000 X19.834 Y-25.561
G1 F1200 X17.931 Y-27.464 E58.57187
G0 F12000 X17.082 Y-27.464
G1 F1200 X19.296 Y-25.250 E58.65161
G0 F12000 X19.006 Y-24.692
G1 F1200 X16.234 Y-27.464 E58.75143
G0 F12000 X15.385 Y-27.464
G1 F1200 X19.006 Y-23.844 E58.88182
G0 F12000 X19.006 Y-22.995
G1 F1200 X14.537 Y-27.464 E59.04276
G0 F12000 X13.688 Y-27.464
G1 F1200 X19.006 Y-22.147 E59.23425
G0 F12000 X19.006 Y-21.298
G1 F1200 X12.840 Y-27.464 E59.45631
G0 F12000 X-9.632 Y-10.905
G1 F1200 X-19.231 Y-20.504 E59.80199
G0 F12000 X-19.769 Y-20.194
G1 F1200 X-10.170 Y-10.594 E60.14770
G0 F12000 X-10.708 Y-10.284
G1 F1200 X-20.308 Y-19.883 E60.49340
G0 F12000 X-20.845 Y-19.572
G1 F1200 X-11.246 Y-9.973 E60.83909
G0 F12000 X-11.472 Y-9.350
G1 F1200 X-21.383 Y-19.262 E61.19603
G0 F12000 X-21.921 Y-18.951
G1 F1200 X-11.472 Y-8.502 E61.57232
G0 F12000 X-11.472 Y-7.653
G1 F1200 X-22.459 Y-18.641 E61.96801
G0 F12000 X-23.372 Y-18.705
G1 F1200 X-11.472 Y-6.805 E62.39656
G0 F12000 X-11.472 Y-5.956
G1 F1200 X-25.382 Y-19.866 E62.89750
G0 F12000 X-27.464 Y-19.403
G1 F1200 X19.403 Y27.464 E64.58530
G0 F12000 X18.555 Y27.464
G1 F1200 X-27.464 Y-18.555 E66.24257
G0 F12000 X-27.464 Y-17.706
G1 F1200 X-5.181 Y4.576 E67.04502
G0 F12000 X-3.766 Y5.992
G1 F1200 X17.706 Y27.464 E67.81828
G0 F12000 X16.858 Y27.464
G1 F1200 X-3.766 Y6.840 E68.56101
G0 F12000 X-3.766 Y7.689
G1 F1200 X16.009 Y27.464 E69.27316
G0 F12000 X15.161 Y27.464
G1 F1200 X-3.766 Y8.537 E69.95477
G0 F12000 X-3.766 Y9.386
G1 F1200 X14.312 Y27.464 E70.60581
G0 F12000 X13.464 Y27.464
G1 F1200 X-4.014 Y9.986 E71.23524
G0 F12000 X-4.552 Y10.296
G1 F1200 X12.615 Y27.464 E71.85348
G0 F12000 X11.766 Y27.464
G1 F1200 X-5.089 Y10.608 E72.46050
G0 F12000 X-5.627 Y10.918
G1 F1200 X10.918 Y27.464 E73.05634
G0 F12000 X10.069 Y27.464
G1 F1200 X-6.165 Y11.228 E73.64101
G0 F12000 X-6.704 Y11.539
G1 F1200 X9.221 Y27.464 E74.21451
G0 F12000 X8.372 Y27.464
G1 F1200 X-7.241 Y11.850 E74.77679
G0 F12000 X-8.215 Y11.724
G1 F1200 X7.524 Y27.464 E75.34361
G0 F12000 X6.675 Y27.464
G1 F1200 X-10.223 Y10.565 E75.95217
G0 F12000 X-11.472 Y9.316
G1 F1200 X-27.464 Y-6.675 E76.52807
G0 F12000 X-27.464 Y-5.827
G1 F1200 X5.827 Y27.464 E77.72697
G0 F12000 X4.978 Y27.464
G1 F1200 X-27.464 Y-4.978 E78.89529
G0 F12000 X-27.464 Y-4.130
G1 F1200 X4.130 Y27.464 E80.03307
G0 F12000 X3.281 Y27.464
G1 F1200 X-27.464 Y-3.281 E81.14028
G0 F12000 X-27.464 Y-2.433
G1 F1200 X2.433 Y27.464 E82.21695
G0 F12000 X1.584 Y27.464
G1 F1200 X-27.464 Y-1.584 E83.26305
G0 F12000 X-27.464 Y-0.736
G1 F1200 X0.736 Y27.464 E84.27861
G0 F12000 X-0.112 Y27.464
G1 F1200 X-27.464 Y0.112 E85.26362
G0 F12000 X-27.464 Y0.960
G1 F1200 X-0.960 Y27.464 E86.21810
G0 F12000 X-1.809 Y27.464
G1 F1200 X-27.464 Y1.809 E87.14201
G0 F12000 X-27.464 Y2.658
G1 F1200 X-2.658 Y27.464 E88.03534
G0 F12000 X-3.506 Y27.464
G1 F1200 X-27.464 Y3.506 E88.89813
G0 F12000 X-27.464 Y4.355
G1 F1200 X-4.355 Y27.464 E89.73035
G0 F12000 X-5.203 Y27.464
G1 F1200 X-27.464 Y5.203 E90.53202
G0 F12000 X-27.464 Y6.052
G1 F1200 X-6.052 Y27.464 E91.30313
G0 F12000 X-6.900 Y27.464
G1 F1200 X-27.464 Y6.900 E92.04369
G0 F12000 X-27.464 Y7.749
G1 F1200 X-7.749 Y27.464 E92.75368
G0 F12000 X-8.597 Y27.464
G1 F1200 X-27.464 Y8.597 E93.43313
G0 F12000 X-27.464 Y9.446
G1 F1200 X-9.446 Y27.464 E94.08201
G0 F12000 X-10.294 Y27.464
G1 F1200 X-27.464 Y10.294 E94.70034
G0 F12000 X-27.464 Y11.143
G1 F1200 X-11.143 Y27.464 E95.28811
G0 F12000 X-11.991 Y27.464
G1 F1200 X-27.464 Y11.991 E95.84533
G0 F12000 X-27.464 Y12.840
G1 F1200 X-20.579 Y19.725 E96.09328
G0 F12000 X-22.587 Y18.566
G1 F1200 X-27.464 Y13.688 E96.26893
G0 F12000 X-27.464 Y14.537
G1 F1200 X-23.323 Y18.678 E96.41806
G0 F12000 X-23.861 Y18.989
G1 F1200 X-27.464 Y15.385 E96.54783
G0 F12000 X-27.464 Y16.234
G1 F1200 X-24.399 Y19.299 E96.65821
G0 F12000 X-24.937 Y19.610
G1 F1200 X-27.464 Y17.082 E96.74923
G0 F12000 X-27.464 Y17.931
G1 F1200 X-25.475 Y19.920 E96.82086
G0 F12000 X-26.013 Y20.231
G1 F1200 X-27.464 Y18.780 E96.87311
G0 F12000 X-27.464 Y19.628
G1 F1200 X-26.551 Y20.542 E96.90601
G0 F12000 X-26.712 Y21.229
G1 F1200 X-27.464 Y20.901 E96.93307
G1 X-27.088 Y22.125 E96.96013
G1 X-27.088 Y22.974 E96.98719
G1 X-27.088 Y23.823 E97.01425
G1 X-26.712 Y24.623 E97.03676
G0 F12000 X-27.464 Y24.719
G1 F1200 X-24.719 Y27.464 E97.13561
G0 F12000 X-23.871 Y27.464
G1 F1200 X-25.621 Y25.714 E97.19864
G0 F12000 X-25.568 Y27.464
G1 F1200 X-27.464 Y25.568 E97.26692
G0 F12000 X-27.464 Y26.416
G1 F1200 X-26.416 Y27.464 E97.30466
G0 F12000 X-27.265 Y27.464
G1 F1200 X-27.464 Y27.265 E97.31182
G0 F12000 X-23.613 Y26.874
G1 F1200 X-22.773 Y27.289 E97.33310
G1 X-22.080 Y27.134 E97.34567
G1 X-21.325 Y27.464 E97.36665
G0 F12000 X-20.477 Y27.464
G1 F1200 X-21.448 Y26.493 E97.40162
G0 F12000 X-20.910 Y26.182
G1 F1200 X-19.628 Y27.464 E97.44778
G0 F12000 X-18.780 Y27.464
G1 F1200 X-20.372 Y25.872 E97.50512
G0 F12000 X-19.834 Y25.561
G1 F1200 X-17.931 Y27.464 E97.57365
G0 F12000 X-17.082 Y27.464
G1 F1200 X-19.296 Y25.250 E97.65338
G0 F12000 X-19.006 Y24.692
G1 F1200 X-16.234 Y27.464 E97.75321
G0 F12000 X-15.385 Y27.464
G1 F1200 X-19.006 Y23.844 E97.88359
G0 F12000 X-19.006 Y22.995
G1 F1200 X-14.537 Y27.464 E98.04453
G0 F12000 X-13.688 Y27.464
G1 F1200 X-19.006 Y22.147 E98.23603
G0 F12000 X-19.006 Y21.298
G1 F1200 X-12.840 Y27.464 E98.45808
G0 F12000 X5.096 Y10.611
G1 F1200 X19.006 Y24.521 E98.95902
G0 F12000 X19.006 Y23.673
G1 F1200 X7.105 Y11.772 E99.38761
G0 F12000 X8.018 Y11.836
G1 F1200 X19.006 Y22.824 E99.78331
G0 F12000 X19.006 Y21.976
G1 F1200 X8.556 Y11.526 E100.15964
G0 F12000 X9.094 Y11.216
G1 F1200 X19.006 Y21.127 E100.51658
G0 F12000 X19.231 Y20.503
G1 F1200 X9.632 Y10.905 E100.86225
G0 F12000 X10.170 Y10.594
G1 F1200 X19.769 Y20.193 E101.20794
G0 F12000 X20.307 Y19.883
G1 F1200 X10.708 Y10.284 E101.55362
G0 F12000 X11.246 Y9.973
G1 F1200 X20.845 Y19.572 E101.89931
G0 F12000 X21.383 Y19.262
G1 F1200 X11.472 Y9.350 E102.25625
G0 F12000 X11.472 Y8.502
G1 F1200 X21.921 Y18.951 E102.63254
G0 F12000 X22.459 Y18.641
G1 F1200 X11.472 Y7.653 E103.02823
G0 F12000 X11.472 Y6.805
G1 F1200 X23.372 Y18.705 E103.45678
G0 F12000 X27.464 Y16.858
G1 F1200 X7.189 Y-3.416 E104.18692
G0 F12000 X8.041 Y-3.413
G1 F1200 X27.464 Y16.009 E104.88638
G0 F12000 X27.464 Y15.161
G1 F1200 X8.579 Y-3.724 E105.56648
G0 F12000 X9.117 Y-4.034
G1 F1200 X27.464 Y14.312 E106.22718
G0 F12000 X27.464 Y13.464
G1 F1200 X9.654 Y-4.345 E106.86855
G0 F12000 X10.192 Y-4.656
G1 F1200 X27.464 Y12.615 E107.49054
G0 F12000 X27.464 Y11.766
G1 F1200 X10.731 Y-4.966 E108.09312
G0 F12000 X11.269 Y-5.277
G1 F1200 X27.464 Y10.918 E108.67635
G0 F12000 X27.464 Y10.069
G1 F1200 X11.472 Y-5.922 E109.25225
G0 F12000 X11.472 Y-6.771
G1 F1200 X27.464 Y9.221 E109.82816
G0 F12000 X27.464 Y8.372
G1 F1200 X11.472 Y-7.619 E110.40406
G0 F12000 X11.472 Y-8.468
G1 F1200 X27.464 Y7.524 E110.97997
G0 F12000 X27.464 Y20.252
G1 F1200 X-20.252 Y-27.464 E112.69835
G0 F12000 X-21.100 Y-27.464
