;FLAVOR:UltiGCode
;TIME:9298
;MATERIAL:20852
;MATERIAL2:0
;NOZZLE_DIAMETER:0.400000
;NOZZLE_DIAMETER2:0.400000

;Layer count: 76
;LAYER:0
M107
G0 F9000 X75.671 Y75.671 Z0.300
;TYPE:SKIRT
G1 F1500 X76.869 Y74.755 E0.18097
G1 X78.258 Y74.179 E0.36141
G1 X79.543 Y74.011 E0.51692
G1 X143.456 Y74.011 E8.18648
G1 X144.389 Y74.132 E8.29938
G1 X144.814 Y74.209 E8.35121
G1 X145.838 Y74.632 E8.48416
G1 X146.224 Y74.825 E8.53595
G1 X147.315 Y75.661 E8.70089
G1 X147.968 Y76.507 E8.82913
G1 X148.241 Y76.858 E8.88249
G1 X148.612 Y77.755 E8.99897
G1 X148.807 Y78.145 E9.05130
G1 X148.949 Y79.243 E9.18416
G1 X148.971 Y79.361 E9.19856
G1 X149.047 Y80.551 E9.34165
G1 X149.191 Y81.276 E9.43035
G1 X149.443 Y82.029 E9.52564
G1 X149.788 Y82.733 E9.61972
G1 X150.215 Y83.373 E9.71204
G1 X150.781 Y84.023 E9.81547
G1 X157.088 Y90.333 E10.88605
G1 X158.084 Y91.431 E11.06395
G1 X158.879 Y92.504 E11.22420
G1 X159.008 Y92.677 E11.25009
G1 X159.702 Y93.834 E11.41200
G1 X159.813 Y94.017 E11.43768
G1 X160.459 Y95.383 E11.61901
G1 X160.989 Y96.845 E11.80562
G1 X161.373 Y98.358 E11.99293
G1 X161.616 Y99.954 E12.18666
G1 X161.687 Y101.385 E12.35859
G1 X161.690 Y102.299 E12.46827
G1 X161.690 Y121.558 E14.77935
G1 X161.620 Y122.983 E14.95056
G1 X161.389 Y124.576 E15.14372
G1 X161.042 Y125.963 E15.31529
G1 X160.969 Y126.209 E15.34608
G1 X160.482 Y127.566 E15.51909
G1 X159.839 Y128.926 E15.69961
G1 X159.017 Y130.310 E15.89277
G1 X158.083 Y131.569 E16.08089
G1 X157.121 Y132.630 E16.25275
G1 X150.810 Y138.944 E17.32402
G1 X150.231 Y139.604 E17.42938
G1 X149.797 Y140.251 E17.52287
G1 X149.460 Y140.932 E17.61404
G1 X149.203 Y141.681 E17.70907
G1 X149.049 Y142.444 E17.80247
G1 X148.976 Y143.534 E17.93357
G1 X148.869 Y144.382 E18.03613
G1 X148.791 Y144.814 E18.08881
G1 X148.368 Y145.838 E18.22176
G1 X148.175 Y146.224 E18.27355
G1 X147.340 Y147.314 E18.43832
G1 X146.486 Y147.974 E18.56784
G1 X146.142 Y148.241 E18.62009
G1 X145.243 Y148.613 E18.73684
G1 X144.855 Y148.807 E18.78890
G1 X143.469 Y148.987 E18.95662
G1 X141.831 Y148.989 E19.15318
G1 X80.168 Y148.989 E26.55274
G1 X79.528 Y148.988 E26.62954
G1 X78.257 Y148.821 E26.78337
G1 X76.869 Y148.245 E26.96370
G1 X75.672 Y147.330 E27.14450
G1 X74.755 Y146.133 E27.32544
G1 X74.176 Y144.735 E27.50702
G1 X74.024 Y143.534 E27.65229
G1 X73.954 Y142.454 E27.78216
G1 X73.806 Y141.710 E27.87319
G1 X73.559 Y140.975 E27.96624
G1 X73.212 Y140.266 E28.06096
G1 X72.785 Y139.626 E28.15329
G1 X72.219 Y138.976 E28.25672
G1 X65.912 Y132.666 E29.32730
G1 X64.916 Y131.568 E29.50520
G1 X64.110 Y130.480 E29.66768
G1 X63.992 Y130.322 E29.69134
G1 X63.214 Y129.025 E29.87284
G1 X62.519 Y127.571 E30.06622
G1 X62.010 Y126.148 E30.24758
G1 X61.613 Y124.586 E30.44098
G1 X61.393 Y123.094 E30.62196
G1 X61.310 Y121.565 E30.80571
G1 X61.310 Y101.441 E33.22059
G1 X61.380 Y100.016 E33.39179
G1 X61.611 Y98.423 E33.58495
G1 X61.991 Y96.904 E33.77285
G1 X62.498 Y95.486 E33.95356
G1 X63.158 Y94.078 E34.14016
G1 X63.983 Y92.689 E34.33402
G1 X64.916 Y91.430 E34.52207
G1 X65.912 Y90.333 E34.69987
G1 X72.197 Y84.047 E35.76655
G1 X72.769 Y83.395 E35.87064
G1 X73.203 Y82.748 E35.96413
G1 X73.542 Y82.063 E36.05584
G1 X73.797 Y81.323 E36.14977
G1 X73.951 Y80.555 E36.24376
G1 X74.025 Y79.465 E36.37486
G1 X74.176 Y78.264 E36.52012
G1 X74.755 Y76.869 E36.70136
G1 X75.671 Y75.671 E36.88233
G10
G1 Z0.375
G0 F9000 X78.382 Y78.382
;TYPE:WALL-INNER
G1 Z0.300
G11
G1 F1500 X78.784 Y78.075 E36.94303
G1 X79.249 Y77.882 E37.00344
G1 X79.791 Y77.811 E37.06904
G1 X143.211 Y77.811 E44.67944
G1 X143.748 Y77.881 E44.74442
G1 X144.217 Y78.075 E44.80533
G1 X144.611 Y78.376 E44.86483
G1 X144.926 Y78.784 E44.92668
G1 X145.119 Y79.251 E44.98732
G1 X145.192 Y79.813 E45.05533
G1 X145.266 Y80.964 E45.19373
G1 X145.274 Y81.061 E45.20541
G1 X145.513 Y82.262 E45.35236
G1 X145.921 Y83.476 E45.50604
G1 X146.485 Y84.627 E45.65985
G1 X147.185 Y85.680 E45.81159
G1 X148.004 Y86.620 E45.96120
G1 X154.336 Y92.954 E47.03594
G1 X155.142 Y93.842 E47.17985
G1 X155.838 Y94.783 E47.32030
G1 X156.450 Y95.799 E47.46263
G1 X156.948 Y96.847 E47.60187
G1 X157.349 Y97.955 E47.74327
G1 X157.646 Y99.121 E47.88766
G1 X157.831 Y100.335 E48.03502
G1 X157.887 Y101.472 E48.17162
G1 X157.890 Y102.305 E48.27158
G1 X157.890 Y121.479 E50.57246
G1 X157.834 Y122.611 E50.70847
G1 X157.655 Y123.845 E50.85810
G1 X157.377 Y124.958 E50.99576
G1 X157.357 Y125.023 E51.00392
G1 X156.967 Y126.111 E51.14262
G1 X156.484 Y127.133 E51.27826
G1 X155.845 Y128.207 E51.42823
G1 X155.142 Y129.156 E51.56995
G1 X154.369 Y130.008 E51.70800
G1 X148.030 Y136.351 E52.78410
G1 X147.209 Y137.287 E52.93351
G1 X146.506 Y138.335 E53.08494
G1 X145.944 Y139.468 E53.23671
G1 X145.528 Y140.682 E53.39071
G1 X145.274 Y141.943 E53.54507
G1 X145.190 Y143.180 E53.69385
G1 X145.119 Y143.748 E53.76254
G1 X144.925 Y144.217 E53.82344
G1 X144.625 Y144.609 E53.88268
G1 X144.217 Y144.925 E53.94461
G1 X143.749 Y145.119 E54.00540
G1 X143.222 Y145.187 E54.06916
G1 X80.173 Y145.189 E61.63504
G1 X79.782 Y145.188 E61.68196
G1 X79.249 Y145.118 E61.74647
G1 X78.784 Y144.925 E61.80689
G1 X78.381 Y144.617 E61.86776
G1 X78.075 Y144.218 E61.92809
G1 X77.882 Y143.751 E61.98873
G1 X77.809 Y143.180 E62.05781
G1 X77.734 Y142.036 E62.19538
G1 X77.726 Y141.938 E62.20718
G1 X77.487 Y140.736 E62.35425
G1 X77.079 Y139.523 E62.50782
G1 X76.515 Y138.372 E62.66163
G1 X75.815 Y137.319 E62.81336
G1 X74.996 Y136.379 E62.96297
G1 X68.664 Y130.045 E64.03772
G1 X67.858 Y129.157 E64.18163
G1 X67.162 Y128.216 E64.32208
G1 X66.564 Y127.222 E64.46128
G1 X66.032 Y126.110 E64.60921
G1 X65.650 Y125.041 E64.74543
G1 X65.344 Y123.838 E64.89439
G1 X65.177 Y122.706 E65.03170
G1 X65.110 Y121.465 E65.18083
G1 X65.110 Y101.520 E67.57423
G1 X65.166 Y100.388 E67.71024
G1 X65.345 Y99.154 E67.85987
G1 X65.631 Y98.009 E68.00149
G1 X66.016 Y96.935 E68.13840
G1 X66.517 Y95.864 E68.28029
G1 X67.155 Y94.792 E68.42999
G1 X67.858 Y93.842 E68.57181
G1 X68.664 Y92.954 E68.71571
G1 X74.970 Y86.648 E69.78588
G1 X75.791 Y85.712 E69.93528
G1 X76.494 Y84.664 E70.08672
G1 X77.056 Y83.531 E70.23848
G1 X77.472 Y82.318 E70.39237
G1 X77.726 Y81.058 E70.54661
G1 X77.810 Y79.813 E70.69635
G1 X77.882 Y79.249 E70.76458
G1 X78.075 Y78.784 E70.82499
G1 X78.382 Y78.382 E70.88569
G0 F9000 X77.055 Y83.530
G0 X73.050 Y95.541
G1 F1500 X72.947 Y95.498 E70.89909
G1 X72.243 Y95.405 E70.98430
G1 X72.133 Y95.389 E70.99764
G1 X71.426 Y95.483 E71.08322
G1 X71.314 Y95.499 E71.09680
G1 X70.662 Y95.768 E71.18144
G1 X70.557 Y95.812 E71.19510
G1 X69.994 Y96.243 E71.28018
G1 X69.904 Y96.314 E71.29394
G1 X69.407 Y96.963 E71.39203
G1 X69.093 Y97.721 E71.49049
G1 X68.990 Y98.495 E71.58419
G1 X68.990 Y123.974 E74.64167
G1 X69.093 Y124.750 E74.73560
G1 X69.407 Y125.508 E74.83406
G1 X69.906 Y126.159 E74.93249
G1 X70.558 Y126.659 E75.03109
G1 X71.316 Y126.974 E75.12959
G1 X72.130 Y127.080 E75.22809
G1 X72.944 Y126.974 E75.32660
G1 X73.600 Y126.702 E75.41182
G1 X73.706 Y126.658 E75.42559
G1 X74.267 Y126.227 E75.51048
G1 X74.357 Y126.156 E75.52424
G1 X74.780 Y125.604 E75.60769
G1 X74.853 Y125.511 E75.62188
G1 X75.122 Y124.860 E75.70641
G1 X75.168 Y124.752 E75.72049
G1 X75.266 Y124.010 E75.81030
G1 X75.271 Y122.603 E75.97915
G1 X75.271 Y98.495 E78.87211
G1 X75.168 Y97.721 E78.96580
G1 X74.854 Y96.963 E79.06426
G1 X74.355 Y96.311 E79.16279
G1 X73.800 Y95.885 E79.24674
G1 X73.706 Y95.812 E79.26102
G1 X73.050 Y95.541 E79.34620
G0 F9000 X147.729 Y98.495
G1 F1500 X147.729 Y123.974 E82.40368
G1 X147.832 Y124.750 E82.49761
G1 X148.146 Y125.508 E82.59607
G1 X148.645 Y126.159 E82.69450
G1 X149.297 Y126.659 E82.79310
G1 X150.055 Y126.974 E82.89160
G1 X150.869 Y127.080 E82.99010
G1 X151.683 Y126.974 E83.08861
G1 X152.443 Y126.659 E83.18733
G1 X153.006 Y126.227 E83.27249
G1 X153.096 Y126.156 E83.28624
G1 X153.519 Y125.604 E83.36970
G1 X153.592 Y125.511 E83.38388
G1 X153.861 Y124.860 E83.46841
G1 X153.907 Y124.752 E83.48250
G1 X154.004 Y124.010 E83.57229
G1 X154.009 Y122.603 E83.74114
G1 X154.009 Y98.496 E86.63398
G1 X153.922 Y97.832 E86.71434
G1 X153.906 Y97.718 E86.72815
G1 X153.636 Y97.066 E86.81283
G1 X153.592 Y96.961 E86.82650
G1 X153.162 Y96.399 E86.91141
G1 X153.091 Y96.309 E86.92517
G1 X152.539 Y95.885 E87.00869
G1 X152.445 Y95.812 E87.02298
G1 X151.789 Y95.541 E87.10815
G1 X151.686 Y95.498 E87.12154
G1 X150.869 Y95.390 E87.22043
G1 X150.165 Y95.483 E87.30565
G1 X150.053 Y95.499 E87.31922
G1 X149.401 Y95.768 E87.40386
G1 X149.295 Y95.812 E87.41763
G1 X148.645 Y96.311 E87.51597
G1 X148.146 Y96.963 E87.61449
G1 X147.832 Y97.721 E87.71295
G1 X147.729 Y98.495 E87.80665
G0 F9000 X148.129 Y98.522
;TYPE:WALL-OUTER
G1 F1500 X148.129 Y123.948 E90.85777
G1 X148.221 Y124.645 E90.94213
G1 X148.495 Y125.306 E91.02800
G1 X148.930 Y125.874 E91.11385
G1 X149.499 Y126.310 E91.19987
G1 X150.160 Y126.584 E91.28574
G1 X150.869 Y126.677 E91.37154
G1 X151.579 Y126.584 E91.45747
G1 X152.241 Y126.310 E91.54345
G1 X152.761 Y125.911 E91.62210
G1 X152.809 Y125.873 E91.62945
G1 X153.204 Y125.357 E91.70743
G1 X153.243 Y125.307 E91.71504
G1 X153.494 Y124.703 E91.79353
G1 X153.518 Y124.646 E91.80095
G1 X153.604 Y123.983 E91.88117
G1 X153.609 Y98.522 E94.93649
G1 X153.526 Y97.886 E95.01346
G1 X153.517 Y97.825 E95.02086
G1 X153.267 Y97.221 E95.09930
G1 X153.243 Y97.164 E95.10673
G1 X152.846 Y96.644 E95.18523
G1 X152.808 Y96.596 E95.19258
G1 X152.290 Y96.198 E95.27097
G1 X152.242 Y96.161 E95.27824
G1 X151.636 Y95.911 E95.35691
G1 X151.580 Y95.887 E95.36422
G1 X150.869 Y95.793 E95.45028
G1 X150.220 Y95.879 E95.52884
G1 X150.159 Y95.888 E95.53624
G1 X149.556 Y96.137 E95.61453
G1 X149.498 Y96.161 E95.62206
G1 X148.930 Y96.596 E95.70791
G1 X148.495 Y97.164 E95.79376
G1 X148.221 Y97.826 E95.87974
G1 X148.129 Y98.522 E95.96398
G0 F9000 X147.832 Y98.483
G0 X148.148 Y96.963
G0 X149.402 Y95.768
G0 X154.409 Y92.885
G0 X154.622 Y92.674
G1 F1500 X155.449 Y93.586 E96.11172
G1 X156.159 Y94.544 E96.25481
G1 X156.180 Y94.572 E96.25901
G1 X156.813 Y95.628 E96.40675
G1 X157.321 Y96.701 E96.54921
G1 X157.734 Y97.843 E96.69494
G1 X158.036 Y99.032 E96.84215
G1 X158.229 Y100.295 E96.99547
G1 X158.287 Y101.471 E97.13676
G1 X158.290 Y121.469 E99.53652
G1 X158.231 Y122.656 E99.67914
G1 X158.048 Y123.921 E99.83252
G1 X157.763 Y125.061 E99.97353
G1 X157.735 Y125.155 E99.98530
G1 X157.342 Y126.253 E100.12524
G1 X156.832 Y127.331 E100.26835
G1 X156.183 Y128.422 E100.42068
G1 X155.449 Y129.413 E100.56867
G1 X154.655 Y130.288 E100.71046
G1 X148.322 Y136.624 E101.78546
G1 X147.527 Y137.531 E101.93019
G1 X146.853 Y138.536 E102.07540
G1 X146.314 Y139.623 E102.22099
G1 X145.915 Y140.787 E102.36865
G1 X145.671 Y141.996 E102.51666
G1 X145.589 Y143.214 E102.66315
G1 X145.509 Y143.852 E102.74031
G1 X145.277 Y144.415 E102.81338
G1 X144.908 Y144.897 E102.88622
G1 X144.420 Y145.274 E102.96022
G1 X143.851 Y145.509 E103.03410
G1 X143.249 Y145.587 E103.10694
G1 X79.752 Y145.588 E110.72658
G1 X79.148 Y145.509 E110.79968
G1 X78.580 Y145.273 E110.87349
G1 X78.098 Y144.905 E110.94626
G1 X77.726 Y144.419 E111.01970
G1 X77.491 Y143.852 E111.09335
G1 X77.411 Y143.215 E111.17039
G1 X77.335 Y142.066 E111.30858
G1 X77.329 Y141.995 E111.31713
G1 X77.100 Y140.839 E111.45854
G1 X76.708 Y139.675 E111.60593
G1 X76.168 Y138.571 E111.75341
G1 X75.496 Y137.562 E111.89888
G1 X74.703 Y136.652 E112.04373
G1 X68.378 Y130.325 E113.11729
G1 X67.551 Y129.413 E113.26502
G1 X66.841 Y128.455 E113.40811
G1 X66.820 Y128.427 E113.41231
G1 X66.208 Y127.406 E113.55516
G1 X65.662 Y126.263 E113.70716
G1 X65.267 Y125.160 E113.84775
G1 X64.951 Y123.918 E114.00154
G1 X64.780 Y122.755 E114.14260
G1 X64.710 Y121.468 E114.29727
G1 X64.710 Y101.530 E116.68983
G1 X64.769 Y100.343 E116.83245
G1 X64.952 Y99.078 E116.98583
G1 X65.250 Y97.886 E117.13327
G1 X65.643 Y96.787 E117.27333
G1 X66.166 Y95.672 E117.42112
G1 X66.817 Y94.577 E117.57398
G1 X67.551 Y93.586 E117.72197
G1 X68.378 Y92.674 E117.86971
G1 X74.678 Y86.375 E118.93877
G1 X75.473 Y85.468 E119.08350
G1 X76.147 Y84.463 E119.22871
G1 X76.686 Y83.376 E119.37430
G1 X77.085 Y82.213 E119.52185
G1 X77.329 Y81.005 E119.66974
G1 X77.411 Y79.786 E119.81635
G1 X77.491 Y79.148 E119.89351
G1 X77.727 Y78.580 E119.96732
G1 X78.097 Y78.097 E120.04033
G1 X78.580 Y77.727 E120.11334
G1 X79.148 Y77.491 E120.18715
G1 X79.762 Y77.411 E120.26145
G1 X143.238 Y77.411 E127.87857
G1 X143.852 Y77.491 E127.95287
G1 X144.415 Y77.723 E128.02595
G1 X144.897 Y78.092 E128.09879
G1 X145.274 Y78.581 E128.17288
G1 X145.509 Y79.149 E128.24665
G1 X145.589 Y79.771 E128.32190
G1 X145.665 Y80.934 E128.46176
G1 X145.671 Y81.004 E128.47019
G1 X145.900 Y82.159 E128.61149
G1 X146.292 Y83.324 E128.75899
G1 X146.832 Y84.428 E128.90647
G1 X147.504 Y85.437 E129.05194
G1 X148.297 Y86.347 E129.19679
G1 X154.622 Y92.674 E130.27035
G0 F9000 X154.409 Y92.885
G0 X75.171 Y98.522
G0 X74.871 Y98.522
G1 F1500 X74.779 Y97.826 E130.35459
G1 X74.505 Y97.164 E130.44057
G1 X74.070 Y96.596 E130.52642
G1 X73.551 Y96.198 E130.60491
G1 X73.503 Y96.161 E130.61218
G1 X72.897 Y95.911 E130.69084
G1 X72.841 Y95.887 E130.69815
G1 X72.193 Y95.802 E130.77658
G1 X72.131 Y95.793 E130.78410
G1 X71.481 Y95.879 E130.86278
G1 X71.420 Y95.888 E130.87018
G1 X70.817 Y96.137 E130.94846
G1 X70.760 Y96.161 E130.95589
G1 X70.239 Y96.559 E131.03456
G1 X70.191 Y96.597 E131.04191
G1 X69.756 Y97.164 E131.12766
G1 X69.482 Y97.826 E131.21364
G1 X69.390 Y98.522 E131.29789
G1 X69.390 Y123.948 E134.34901
G1 X69.482 Y124.645 E134.43337
G1 X69.756 Y125.306 E134.51924
G1 X70.191 Y125.874 E134.60509
G1 X70.760 Y126.310 E134.69111
G1 X71.421 Y126.584 E134.77697
G1 X72.130 Y126.677 E134.86278
G1 X72.840 Y126.584 E134.94871
G1 X73.445 Y126.333 E135.02731
G1 X73.503 Y126.309 E135.03484
G1 X74.022 Y125.911 E135.11333
G1 X74.070 Y125.873 E135.12067
G1 X74.465 Y125.357 E135.19865
G1 X74.504 Y125.307 E135.20626
G1 X74.755 Y124.703 E135.28475
G1 X74.779 Y124.646 E135.29217
G1 X74.866 Y123.983 E135.37242
G1 X74.871 Y98.522 E138.42774
G0 F9000 X75.407 Y98.318
;TYPE:SKIN
G1 F1500 X122.115 Y145.026 E146.35435
G0 F9000 X121.550 Y145.026
G1 F1500 X75.429 Y98.905 E154.18134
G0 F9000 X75.429 Y99.471
G1 F1500 X120.984 Y145.026 E161.91228
G0 F9000 X120.418 Y145.026
G1 F1500 X75.429 Y100.037 E169.54717
G0 F9000 X75.429 Y100.602
G1 F1500 X119.853 Y145.026 E177.08617
G0 F9000 X119.287 Y145.026
G1 F1500 X75.429 Y101.168 E184.52912
G0 F9000 X75.429 Y101.734
G1 F1500 X118.721 Y145.026 E191.87602
G0 F9000 X118.156 Y145.026
G1 F1500 X75.429 Y102.299 E199.12703
G0 F9000 X75.429 Y102.864
G1 F1500 X117.590 Y145.026 E206.28207
G0 F9000 X117.024 Y145.026
G1 F1500 X75.429 Y103.430 E213.34106
G0 F9000 X75.429 Y103.996
G1 F1500 X116.459 Y145.026 E220.30408
G0 F9000 X115.893 Y145.026
G1 F1500 X75.429 Y104.562 E227.17105
G0 F9000 X75.429 Y105.127
G1 F1500 X115.327 Y145.026 E233.94205
G0 F9000 X114.762 Y145.026
G1 F1500 X75.429 Y105.693 E240.61708
G0 F9000 X75.428 Y106.258
G1 F1500 X114.196 Y145.026 E247.19623
G0 F9000 X113.630 Y145.026
G1 F1500 X75.428 Y106.824 E253.67933
G0 F9000 X75.428 Y107.389
G1 F1500 X113.064 Y145.026 E260.06645
G0 F9000 X112.499 Y145.026
G1 F1500 X75.428 Y107.955 E266.35761
G0 F9000 X75.428 Y108.521
G1 F1500 X111.933 Y145.026 E272.55271
G0 F9000 X111.368 Y145.026
G1 F1500 X75.428 Y109.086 E278.65193
G0 F9000 X75.427 Y109.651
G1 F1500 X110.802 Y145.026 E284.65527
G0 F9000 X110.237 Y145.026
G1 F1500 X75.427 Y110.217 E290.56264
G0 F9000 X75.427 Y110.783
G1 F1500 X109.671 Y145.026 E296.37395
G0 F9000 X109.105 Y145.026
G1 F1500 X75.427 Y111.348 E302.08930
G0 F9000 X75.427 Y111.914
G1 F1500 X108.540 Y145.026 E307.70868
G0 F9000 X107.974 Y145.026
G1 F1500 X75.427 Y112.480 E313.23200
G0 F9000 X75.427 Y113.045
G1 F1500 X107.408 Y145.026 E318.65936
G0 F9000 X106.843 Y145.026
G1 F1500 X75.427 Y113.610 E323.99083
G0 F9000 X75.427 Y114.176
G1 F1500 X106.277 Y145.026 E329.22625
G0 F9000 X105.711 Y145.026
G1 F1500 X75.427 Y114.742 E334.36561
G0 F9000 X75.427 Y115.307
G1 F1500 X105.146 Y145.026 E339.40909
G0 F9000 X104.580 Y145.026
G1 F1500 X75.427 Y115.873 E344.35652
G0 F9000 X75.427 Y116.439
G1 F1500 X104.014 Y145.026 E349.20790
G0 F9000 X103.449 Y145.026
G1 F1500 X75.426 Y117.004 E353.96347
G0 F9000 X75.426 Y117.569
