;FLAVOR:UltiGCode
;TIME:8919
;MATERIAL:20876
;MATERIAL2:0
;NOZZLE_DIAMETER:0.400000
;NOZZLE_DIAMETER2:0.400000

;Layer count: 76
;LAYER:0
M107
G0 F9000 X75.379 Y75.370 Z0.300
;TYPE:SKIRT
G1 F1500 X76.366 Y74.617 E0.14897
G1 X77.505 Y74.143 E0.29702
G1 X78.528 Y74.011 E0.42079
G1 X144.476 Y74.011 E8.33455
G1 X145.504 Y74.147 E8.45899
G1 X146.645 Y74.622 E8.60730
G1 X147.625 Y75.375 E8.75561
G1 X148.379 Y76.356 E8.90408
G1 X148.857 Y77.506 E9.05353
G1 X148.989 Y78.528 E9.17718
G1 X148.989 Y82.233 E9.62178
G1 X158.595 Y91.839 E11.25198
G1 X159.459 Y92.825 E11.40930
G1 X160.247 Y94.004 E11.57947
G1 X160.872 Y95.273 E11.74921
G1 X161.328 Y96.614 E11.91918
G1 X161.603 Y98.002 E12.08898
G1 X161.690 Y99.310 E12.24629
G1 X161.690 Y123.689 E15.17177
G1 X161.603 Y124.997 E15.32907
G1 X161.328 Y126.385 E15.49887
G1 X160.872 Y127.726 E15.66884
G1 X160.247 Y128.995 E15.83859
G1 X159.459 Y130.174 E16.00876
G1 X158.595 Y131.160 E16.16608
G1 X148.989 Y140.766 E17.79627
G1 X148.989 Y144.484 E18.24243
G1 X148.852 Y145.507 E18.36629
G1 X148.378 Y146.645 E18.51422
G1 X147.621 Y147.630 E18.66329
G1 X146.634 Y148.383 E18.81227
G1 X145.494 Y148.857 E18.96042
G1 X144.471 Y148.989 E19.08420
G1 X78.528 Y148.989 E26.99736
G1 X77.506 Y148.857 E27.12102
G1 X76.356 Y148.379 E27.27046
G1 X75.375 Y147.625 E27.41894
G1 X74.621 Y146.644 E27.56741
G1 X74.143 Y145.494 E27.71686
G1 X74.011 Y144.471 E27.84064
G1 X74.011 Y140.766 E28.28524
G1 X64.406 Y131.160 E29.91534
G1 X63.585 Y130.226 E30.06457
G1 X62.797 Y129.062 E30.23325
G1 X62.162 Y127.799 E30.40288
G1 X61.766 Y126.659 E30.54770
G1 X61.676 Y126.402 E30.58038
G1 X61.448 Y125.256 E30.72059
G1 X61.397 Y124.999 E30.75203
G1 X61.314 Y123.745 E30.90284
G1 X61.310 Y99.311 E33.83492
G1 X61.380 Y98.258 E33.96156
G1 X61.398 Y97.994 E33.99332
G1 X61.621 Y96.874 E34.13035
G1 X61.673 Y96.613 E34.16229
G1 X62.047 Y95.509 E34.30217
G1 X62.136 Y95.258 E34.33412
G1 X62.722 Y94.066 E34.49351
G1 X63.495 Y92.890 E34.66239
G1 X64.361 Y91.890 E34.82113
G1 X74.007 Y82.238 E36.45862
G1 X74.011 Y82.234 E36.45930
G1 X74.011 Y78.515 E36.90558
G1 X74.148 Y77.493 E37.02932
G1 X74.622 Y76.355 E37.17725
G1 X75.379 Y75.370 E37.32633
G10
G1 Z0.375
G0 F9000 X78.086 Y78.085
;TYPE:WALL-INNER
G1 Z0.300
G11
G1 F1500 X78.280 Y77.937 E37.35561
G1 X78.496 Y77.847 E37.38369
G1 X78.772 Y77.811 E37.41709
G1 X144.224 Y77.811 E45.27133
G1 X144.509 Y77.849 E45.30583
G1 X144.723 Y77.938 E45.33364
G1 X144.915 Y78.085 E45.36266
G1 X145.062 Y78.277 E45.39168
G1 X145.153 Y78.496 E45.42013
G1 X145.189 Y78.772 E45.45354
G1 X145.189 Y83.073 E45.96966
G1 X145.249 Y83.519 E46.02366
G1 X145.436 Y83.970 E46.08225
G1 X145.709 Y84.327 E46.13618
G1 X155.814 Y94.432 E47.85105
G1 X156.439 Y95.145 E47.96483
G1 X156.949 Y95.908 E48.07496
G1 X157.353 Y96.729 E48.18476
G1 X157.648 Y97.595 E48.29455
G1 X157.827 Y98.496 E48.40478
G1 X157.890 Y99.441 E48.51843
G1 X157.890 Y123.558 E51.41247
G1 X157.828 Y124.498 E51.52552
G1 X157.648 Y125.404 E51.63636
G1 X157.353 Y126.270 E51.74614
G1 X156.949 Y127.091 E51.85595
G1 X156.441 Y127.852 E51.96574
G1 X155.814 Y128.567 E52.07986
G1 X145.708 Y138.673 E53.79491
G1 X145.434 Y139.033 E53.84920
G1 X145.249 Y139.481 E53.90736
G1 X145.189 Y139.926 E53.96124
G1 X145.189 Y144.227 E54.47736
G1 X145.151 Y144.509 E54.51151
G1 X145.062 Y144.723 E54.53932
G1 X144.914 Y144.915 E54.56841
G1 X144.720 Y145.063 E54.59769
G1 X144.504 Y145.153 E54.62577
G1 X144.227 Y145.189 E54.65929
G1 X78.772 Y145.189 E62.51389
G1 X78.496 Y145.153 E62.54729
G1 X78.277 Y145.062 E62.57575
G1 X78.085 Y144.915 E62.60477
G1 X77.938 Y144.723 E62.63379
G1 X77.847 Y144.504 E62.66224
G1 X77.811 Y144.227 E62.69576
G1 X77.811 Y139.927 E63.21176
G1 X77.752 Y139.481 E63.26575
G1 X77.559 Y139.021 E63.32561
G1 X77.291 Y138.672 E63.37841
G1 X67.186 Y128.567 E65.09329
G1 X66.599 Y127.899 E65.20000
G1 X66.077 Y127.128 E65.31173
G1 X65.671 Y126.319 E65.42035
G1 X65.355 Y125.411 E65.53572
G1 X65.172 Y124.498 E65.64746
G1 X65.114 Y123.614 E65.75377
G1 X65.110 Y99.441 E68.65453
G1 X65.171 Y98.517 E68.76565
G1 X65.352 Y97.595 E68.87840
G1 X65.638 Y96.753 E68.98511
G1 X66.026 Y95.959 E69.09116
G1 X66.532 Y95.188 E69.20183
G1 X67.153 Y94.471 E69.31565
G1 X77.292 Y84.327 E71.03672
G1 X77.564 Y83.970 E71.09058
G1 X77.751 Y83.519 E71.14916
G1 X77.811 Y83.073 E71.20317
G1 X77.811 Y78.772 E71.71929
G1 X77.849 Y78.491 E71.75331
G1 X77.938 Y78.277 E71.78113
G1 X78.086 Y78.085 E71.81022
G0 F9000 X77.562 Y83.968
G0 X73.243 Y94.794
G1 F1500 X73.145 Y94.753 E71.82296
G1 X72.130 Y94.618 E71.94584
G1 X71.212 Y94.739 E72.05695
G1 X71.110 Y94.756 E72.06936
G1 X70.264 Y95.104 E72.17913
G1 X70.168 Y95.146 E72.19171
G1 X69.433 Y95.710 E72.30288
G1 X69.353 Y95.778 E72.31548
G1 X68.755 Y96.554 E72.43304
G1 X68.389 Y97.422 E72.54608
G1 X68.348 Y97.520 E72.55883
G1 X68.218 Y98.496 E72.67699
G1 X68.218 Y123.975 E75.73447
G1 X68.346 Y124.950 E75.85247
G1 X68.738 Y125.894 E75.97513
G1 X69.361 Y126.705 E76.09785
G1 X70.150 Y127.311 E76.21723
G1 X71.018 Y127.677 E76.33027
G1 X71.117 Y127.718 E76.34313
G1 X72.130 Y127.852 E76.46575
G1 X73.048 Y127.732 E76.57685
G1 X73.151 Y127.715 E76.58938
G1 X73.997 Y127.365 E76.69924
G1 X74.093 Y127.324 E76.71177
G1 X74.828 Y126.760 E76.82294
G1 X74.908 Y126.692 E76.83554
G1 X75.506 Y125.916 E76.95310
G1 X75.872 Y125.048 E77.06614
G1 X75.913 Y124.950 E77.07889
G1 X76.040 Y124.000 E77.19391
G1 X76.042 Y98.496 E80.25439
G1 X75.915 Y97.521 E80.37237
G1 X75.523 Y96.576 E80.49514
G1 X74.955 Y95.837 E80.60699
G1 X74.887 Y95.757 E80.61959
G1 X74.112 Y95.159 E80.73706
G1 X73.243 Y94.794 E80.85016
G0 F9000 X146.957 Y98.496
G1 F1500 X146.957 Y123.975 E83.90764
G1 X147.085 Y124.950 E84.02565
G1 X147.477 Y125.894 E84.14831
G1 X148.100 Y126.705 E84.27103
G1 X148.889 Y127.311 E84.39041
G1 X149.757 Y127.677 E84.50345
G1 X149.856 Y127.718 E84.51631
G1 X150.869 Y127.852 E84.63893
G1 X151.787 Y127.732 E84.75003
G1 X151.890 Y127.715 E84.76255
G1 X152.735 Y127.365 E84.87231
G1 X152.831 Y127.324 E84.88483
G1 X153.567 Y126.760 E84.99610
G1 X153.647 Y126.692 E85.00870
G1 X154.245 Y125.916 E85.12626
G1 X154.611 Y125.048 E85.23931
G1 X154.652 Y124.950 E85.25205
G1 X154.779 Y124.000 E85.36707
G1 X154.781 Y98.496 E88.42755
G1 X154.654 Y97.521 E88.54554
G1 X154.262 Y96.576 E88.66831
G1 X153.694 Y95.837 E88.78015
G1 X153.626 Y95.757 E88.79275
G1 X152.850 Y95.159 E88.91031
G1 X151.982 Y94.794 E89.02331
G1 X151.884 Y94.753 E89.03606
G1 X150.869 Y94.618 E89.15893
G1 X149.951 Y94.739 E89.27004
G1 X149.849 Y94.756 E89.28245
G1 X149.003 Y95.104 E89.39222
G1 X148.907 Y95.146 E89.40480
G1 X148.172 Y95.710 E89.51597
G1 X148.092 Y95.778 E89.52857
G1 X147.494 Y96.554 E89.64613
G1 X147.128 Y97.422 E89.75918
G1 X147.087 Y97.520 E89.77192
G1 X146.957 Y98.496 E89.89008
G0 F9000 X147.357 Y98.522
;TYPE:WALL-OUTER
G1 F1500 X147.357 Y123.948 E92.94120
G1 X147.475 Y124.845 E93.04977
G1 X147.826 Y125.692 E93.15979
G1 X148.385 Y126.420 E93.26993
G1 X149.092 Y126.962 E93.37683
G1 X149.960 Y127.329 E93.48992
G1 X150.869 Y127.449 E93.59995
G1 X151.730 Y127.336 E93.70415
G1 X151.781 Y127.328 E93.71035
G1 X152.579 Y126.997 E93.81402
G1 X152.626 Y126.977 E93.82015
G1 X153.316 Y126.449 E93.92441
G1 X153.356 Y126.415 E93.93071
G1 X153.896 Y125.713 E94.03699
G1 X154.242 Y124.893 E94.14379
G1 X154.263 Y124.845 E94.15008
G1 X154.379 Y123.973 E94.25564
G1 X154.381 Y98.522 E97.30976
G1 X154.264 Y97.625 E97.41831
G1 X153.913 Y96.778 E97.52833
G1 X153.383 Y96.088 E97.63274
G1 X153.349 Y96.048 E97.63904
G1 X152.647 Y95.508 E97.74532
G1 X151.779 Y95.142 E97.85836
G1 X150.869 Y95.021 E97.96852
G1 X150.009 Y95.135 E98.07262
G1 X149.958 Y95.143 E98.07882
G1 X149.159 Y95.473 E98.18255
G1 X149.112 Y95.493 E98.18868
G1 X148.423 Y96.021 E98.29285
G1 X148.383 Y96.055 E98.29915
G1 X147.843 Y96.757 E98.40543
G1 X147.497 Y97.577 E98.51223
G1 X147.476 Y97.625 E98.51852
G1 X147.357 Y98.522 E98.62710
G0 F9000 X147.060 Y98.482
G0 X147.497 Y96.556
G0 X149.003 Y95.105
G0 X150.869 Y94.619
G0 X152.848 Y95.161
G0 X155.886 Y94.362
G0 X156.108 Y94.160
G1 F1500 X156.757 Y94.900 E98.74521
G1 X157.297 Y95.707 E98.86173
G1 X157.724 Y96.576 E98.97792
G1 X158.036 Y97.494 E99.09427
G1 X158.225 Y98.443 E99.21039
G1 X158.290 Y99.429 E99.32896
G1 X158.290 Y123.570 E102.22588
G1 X158.225 Y124.556 E102.34446
G1 X158.036 Y125.505 E102.46058
G1 X157.724 Y126.423 E102.57693
G1 X157.297 Y127.292 E102.69311
G1 X156.757 Y128.099 E102.80963
G1 X156.108 Y128.839 E102.92775
G1 X146.010 Y138.936 E104.64135
G1 X145.784 Y139.234 E104.68623
G1 X145.638 Y139.586 E104.73196
G1 X145.589 Y139.953 E104.77639
G1 X145.589 Y144.258 E105.29299
G1 X145.542 Y144.610 E105.33561
G1 X145.410 Y144.927 E105.37681
G1 X145.199 Y145.202 E105.41841
G1 X144.924 Y145.411 E105.45986
G1 X144.605 Y145.544 E105.50133
G1 X144.254 Y145.589 E105.54379
G1 X78.745 Y145.589 E113.40487
G1 X78.395 Y145.544 E113.44722
G1 X78.073 Y145.410 E113.48907
G1 X77.800 Y145.200 E113.53040
G1 X77.590 Y144.927 E113.57173
G1 X77.456 Y144.605 E113.61359
G1 X77.411 Y144.254 E113.65605
G1 X77.411 Y139.953 E114.17217
G1 X77.363 Y139.586 E114.21659
G1 X77.210 Y139.224 E114.26375
G1 X76.990 Y138.936 E114.30724
G1 X66.892 Y128.839 E116.02084
G1 X66.283 Y128.145 E116.13164
G1 X65.737 Y127.339 E116.24846
G1 X65.300 Y126.471 E116.36508
G1 X64.963 Y125.500 E116.48841
G1 X64.775 Y124.556 E116.60392
G1 X64.714 Y123.626 E116.71576
G1 X64.710 Y99.429 E119.61940
G1 X64.772 Y98.490 E119.73232
G1 X64.774 Y98.450 E119.73713
G1 X64.964 Y97.494 E119.85409
G1 X65.260 Y96.620 E119.96483
G1 X65.678 Y95.760 E120.07957
G1 X66.213 Y94.944 E120.19666
G1 X66.856 Y94.202 E120.31448
G1 X76.990 Y84.063 E122.03470
G1 X77.215 Y83.769 E122.07913
G1 X77.362 Y83.414 E122.12524
G1 X77.411 Y83.046 E122.16979
G1 X77.411 Y78.741 E122.68639
G1 X77.458 Y78.390 E122.72888
G1 X77.590 Y78.073 E122.77009
G1 X77.801 Y77.798 E122.81168
G1 X78.076 Y77.589 E122.85313
G1 X78.395 Y77.456 E122.89460
G1 X78.745 Y77.411 E122.93695
G1 X144.254 Y77.411 E130.79803
G1 X144.610 Y77.458 E130.84112
G1 X144.927 Y77.590 E130.88233
G1 X145.200 Y77.800 E130.92366
G1 X145.410 Y78.073 E130.96499
G1 X145.544 Y78.395 E131.00684
G1 X145.589 Y78.745 E131.04919
G1 X145.589 Y83.046 E131.56531
G1 X145.638 Y83.414 E131.60986
G1 X145.785 Y83.769 E131.65597
G1 X146.010 Y84.063 E131.70039
G1 X156.108 Y94.160 E133.41399
G0 F9000 X155.886 Y94.362
G0 X75.941 Y98.523
G0 X75.642 Y98.522
G1 F1500 X75.525 Y97.625 E133.52255
G1 X75.174 Y96.778 E133.63257
G1 X74.644 Y96.088 E133.73697
G1 X74.610 Y96.048 E133.74327
G1 X73.909 Y95.508 E133.84946
G1 X73.040 Y95.142 E133.96261
G1 X72.130 Y95.021 E134.07277
G1 X71.270 Y95.135 E134.17687
G1 X71.219 Y95.143 E134.18307
G1 X70.420 Y95.473 E134.28681
G1 X70.373 Y95.493 E134.29293
G1 X69.684 Y96.021 E134.39710
G1 X69.644 Y96.055 E134.40340
G1 X69.104 Y96.757 E134.50968
G1 X68.758 Y97.577 E134.61648
G1 X68.737 Y97.625 E134.62277
G1 X68.618 Y98.522 E134.73135
G1 X68.618 Y123.948 E137.78247
G1 X68.736 Y124.845 E137.89104
G1 X69.087 Y125.692 E138.00106
G1 X69.646 Y126.420 E138.11120
G1 X70.353 Y126.962 E138.21811
G1 X71.221 Y127.329 E138.33119
G1 X72.130 Y127.449 E138.44122
G1 X72.991 Y127.336 E138.54543
G1 X73.042 Y127.328 E138.55162
G1 X73.841 Y126.997 E138.65540
G1 X73.888 Y126.977 E138.66153
G1 X74.577 Y126.449 E138.76570
G1 X74.617 Y126.415 E138.77200
G1 X75.157 Y125.713 E138.87828
G1 X75.503 Y124.893 E138.98508
G1 X75.524 Y124.845 E138.99136
G1 X75.640 Y123.973 E139.09693
G1 X75.642 Y98.522 E142.15105
G0 F9000 X76.201 Y98.545
;TYPE:SKIN
G1 F1500 X122.683 Y145.028 E150.03939
G0 F9000 X122.118 Y145.028
G1 F1500 X76.201 Y99.111 E157.83176
G0 F9000 X76.201 Y99.677
G1 F1500 X121.552 Y145.028 E165.52808
G0 F9000 X120.986 Y145.028
G1 F1500 X76.201 Y100.242 E173.12843
G0 F9000 X76.201 Y100.808
G1 F1500 X120.420 Y145.028 E180.63273
G0 F9000 X123.249 Y145.028
G1 F1500 X76.125 Y97.904 E188.62994
G0 F9000 X75.933 Y97.146
G1 F1500 X123.815 Y145.028 E196.75578
G0 F9000 X124.380 Y145.028
G1 F1500 X75.033 Y95.681 E205.13025
G0 F9000 X74.973 Y95.620
G1 F1500 X70.600 Y91.247 E205.87237
G0 F9000 X70.882 Y90.964
G1 F1500 X124.946 Y145.028 E215.04734
G0 F9000 X125.512 Y145.028
G1 F1500 X71.165 Y90.681 E224.27033
G0 F9000 X71.448 Y90.398
G1 F1500 X126.077 Y145.028 E233.54126
G0 F9000 X126.643 Y145.028
G1 F1500 X71.731 Y90.115 E242.86022
G0 F9000 X72.013 Y89.832
G1 F1500 X127.209 Y145.028 E252.22729
G0 F9000 X127.774 Y145.028
G1 F1500 X72.296 Y89.550 E261.64222
G0 F9000 X72.579 Y89.267
G1 F1500 X128.340 Y145.028 E271.10518
G0 F9000 X128.906 Y145.028
G1 F1500 X72.862 Y88.984 E280.61616
G0 F9000 X73.145 Y88.701
G1 F1500 X129.471 Y145.028 E290.17508
G0 F9000 X130.037 Y145.028
G1 F1500 X73.428 Y88.418 E299.78203
G0 F9000 X73.710 Y88.135
G1 F1500 X130.603 Y145.028 E309.43710
G0 F9000 X131.169 Y145.028
G1 F1500 X73.993 Y87.853 E319.14010
G0 F9000 X74.275 Y87.569
G1 F1500 X131.734 Y145.028 E328.89122
G0 F9000 X132.300 Y145.028
G1 F1500 X74.558 Y87.286 E338.69036
G0 F9000 X74.841 Y87.003
G1 F1500 X132.866 Y145.028 E348.53753
G0 F9000 X133.431 Y145.028
G1 F1500 X75.124 Y86.720 E358.43264
G0 F9000 X75.407 Y86.438
G1 F1500 X133.997 Y145.028 E368.37569
G0 F9000 X134.563 Y145.028
G1 F1500 X75.690 Y86.155 E378.36677
G0 F9000 X75.972 Y85.872
G1 F1500 X135.128 Y145.028 E388.40588
G0 F9000 X135.694 Y145.028
G1 F1500 X76.255 Y85.589 E398.49301
G0 F9000 X76.538 Y85.306
G1 F1500 X136.260 Y145.028 E408.62817
G0 F9000 X136.825 Y145.028
G1 F1500 X76.821 Y85.023 E418.81127
G0 F9000 X77.104 Y84.741
G1 F1500 X137.391 Y145.028 E429.04231
G0 F9000 X137.957 Y145.028
G1 F1500 X77.387 Y84.458 E439.32138
G0 F9000 X77.634 Y84.140
G1 F1500 X138.522 Y145.028 E449.65442
G0 F9000 X139.088 Y145.028
G1 F1500 X77.823 Y83.763 E460.05143
G0 F9000 X77.939 Y83.313
G1 F1500 X139.654 Y145.028 E470.52482
G0 F9000 X140.219 Y145.028
G1 F1500 X77.970 Y82.778 E481.08891
G0 F9000 X77.970 Y82.213
G1 F1500 X140.785 Y145.028 E491.74897
G0 F9000 X141.351 Y145.028
G1 F1500 X77.970 Y81.647 E502.50508
G0 F9000 X77.970 Y81.081
G1 F1500 X141.917 Y145.028 E513.35724
G0 F9000 X142.482 Y145.028
G1 F1500 X77.970 Y80.516 E524.30529
G0 F9000 X77.562 Y83.968
G0 X70.317 Y91.530
G1 F1500 X73.523 Y94.736 E524.84937
G0 F9000 X72.759 Y94.538
G1 F1500 X70.034 Y91.813 E525.31182
G0 F9000 X69.751 Y92.096
G1 F1500 X72.113 Y94.458 E525.71266
G0 F9000 X71.613 Y94.523
G1 F1500 X69.468 Y92.379 E526.07660
G0 F9000 X69.186 Y92.662
G1 F1500 X71.115 Y94.591 E526.40396
G0 F9000 X70.706 Y94.748
G1 F1500 X68.903 Y92.944 E526.71002
G0 F9000 X68.620 Y93.227
G1 F1500 X70.306 Y94.913 E526.99615
G0 F9000 X69.942 Y95.115
G1 F1500 X68.337 Y93.510 E527.26852
G0 F9000 X68.054 Y93.793
G1 F1500 X69.622 Y95.361 E527.53462
G0 F9000 X69.303 Y95.607
G1 F1500 X67.771 Y94.076 E527.79453
G0 F9000 X67.489 Y94.359
G1 F1500 X69.045 Y95.915 E528.05859
G0 F9000 X68.798 Y96.234
G1 F1500 X67.211 Y94.646 E528.32800
G0 F9000 X66.948 Y94.949
G1 F1500 X68.573 Y96.574 E528.60377
G0 F9000 X68.405 Y96.972
G1 F1500 X66.685 Y95.252 E528.89566
G0 F9000 X66.457 Y95.590
G1 F1500 X68.237 Y97.370 E529.19774
G0 F9000 X68.143 Y97.842
G1 F1500 X66.233 Y95.932 E529.52188
G0 F9000 X66.036 Y96.300
G1 F1500 X68.077 Y98.341 E529.86824
G0 F9000 X68.058 Y98.888
G1 F1500 X65.851 Y96.681 E530.24279
G0 F9000 X65.692 Y97.087
G1 F1500 X68.058 Y99.453 E530.64431
G0 F9000 X68.058 Y100.019
G1 F1500 X65.548 Y97.510 E531.07018
G0 F9000 X65.441 Y97.968
G1 F1500 X68.058 Y100.585 E531.51430
G0 F9000 X68.058 Y101.150
G1 F1500 X65.347 Y98.440 E531.97429
G0 F9000 X65.302 Y98.960
G1 F1500 X68.058 Y101.716 E532.44200
G0 F9000 X68.058 Y102.282
G1 F1500 X65.269 Y99.493 E532.91531
G0 F9000 X65.269 Y100.059
G1 F1500 X68.058 Y102.847 E533.38853
G0 F9000 X68.058 Y103.413
G1 F1500 X65.269 Y100.624 E533.86184
G0 F9000 X65.269 Y101.190
G1 F1500 X68.058 Y103.979 E534.33515
G0 F9000 X68.058 Y104.545
G1 F1500 X65.269 Y101.756 E534.80846
G0 F9000 X65.269 Y102.321
G1 F1500 X68.058 Y105.110 E535.28177
G0 F9000 X68.058 Y105.676
G1 F1500 X65.269 Y102.887 E535.75508
G0 F9000 X65.269 Y103.453
G1 F1500 X68.058 Y106.242 E536.22839
G0 F9000 X68.058 Y106.807
G1 F1500 X65.270 Y104.019 E536.70153
G0 F9000 X65.270 Y104.585
